!!!!SEGMENT: pl-sa--177-a-v-7--001-008_luna-georgius--missa-ex-d-dona.krn
!!!cenid: 17xx:472
!!!COM: Luna, Georgius
!!!COM-rismID: pe41010079
!!!CDT:
!!!CNT:
!!!OPR: Missa ex D
!!!OTL: Dona
!!!OMV: 008
!!!PDT:
!!!AGN: Sacred; Mass
!!!YEC: Copyright 2022 Narodowy Instytut Fryderyka Chopina (https://polishscores.org)
!!!YEM: License CC-BY-4.0 (https://creativecommons.org/licenses/by/4.0)
!!!SMS-siglum: PL-SA
!!!SMS-shelfmark: 177/A V 7
!!!SMS-shelfwork: 001-008 M
!!!SMS-variant:
!!!SMS-altvar:
!!!NIFC-rismSourceID: 1001035883
!!!NIFC-rismChildID: 1001035883
!!!NIFC-islandoraID: none
!!!URL-pdf-islandora:
!!!URL-scan: https://bc.bdsandomierz.pl/dlibra/publication/1512/edition/1480/content @EN{Scan in the Sandomierz Diocese Digital Library} @PL{Skany w portalu Cyfrowa Biblioteka Diecezjalna w Sandomierzu}
!!!IIIF:
!!!ONB-nifc: UWAGA; części Mszy: Sinfonia, Kyrie, Gloria, Patrem, Sanctus, Benedictus, Agnus, Dona. UWAGA: brak partii cornu primo, cornu secundo
!!!AIN: 2 clrno 2 cor 2 oboe 1 organ 1 soprn 1 tenor 2 violn
!!!OMD:
!!!OMD-mod: Allegro
!!!key: D
**kern	**kern	**kern	**kern	**text	**kern	**text	**kern	**dynam	**kern	**kern	**kern	**kern	**kern
*part11	*part10	*part9	*part8	*part8	*part7	*part7	*part6	*part6	*part5	*part4	*part3	*part2	*part1
*staff11	*staff10	*staff9	*staff8	*staff8	*staff7	*staff7	*staff6	*	*staff5	*staff4	*staff3	*staff2	*staff1
*ICklav	*ICstr	*ICstr	*ICvox	*	*ICvox	*	*ICbras	*	*ICbras	*ICbras	*ICbras	*ICww	*ICww
*Iorgan	*Ivioln	*Ivioln	*Itenor	*	*Isoprn	*	*Iclrno	*	*Iclrno	*Icor	*Icor	*Ioboe	*Ioboe
*I"Fundamento	*I"Violino Secundo	*I"Violino Primo	*I"Tenor	*	*I"Canto	*	*I"Clarino Secundo	*	*I"Clarino Primo	*I"Cornu Secundo	*I"Cornu Primo	*I"Hobois 2do	*I"Hobois Primo
*mI"Basso continuo	*mI"Violino II	*mI"Violino I	*mI"Tenore	*	*mI"Soprano	*	*mI"Clarino II	*	*mI"Clarino I	*mI"Corno II	*mI"Corno I	*mI"Oboe II	*mI"Oboe I
*I'bc	*I'vl 2	*I'vl 1	*I'T	*	*I'S	*	*I'clno 2	*	*I'clno 1	*I'cor 2	*I'cor 1	*I'ob 2	*I'ob 1
!	!	!	!	!	!	!	!	!	!	!LO:MO:null:mod=*tacet	!LO:MO:null:mod=*tacet	!LO:MO:null:mod=*tacet	!LO:MO:null:mod=*tacet
*	*	*	*	*	*	*	*	*	*	*null	*null	*null	*null
*clefF4	*clefG2	*clefG2	*clefC4	*	*clefC1	*	*clefG2	*	*clefG2	*clefG2	*clefG2	*clefG2	*clefG2
*	*	*	*mclefGv2	*	*mclefG2	*	*	*	*	*	*	*	*
*	*	*	*	*	*	*	*ITrd-1c-2	*	*ITrd-1c-2	*	*	*	*
*k[f#c#]	*k[f#c#]	*k[f#c#]	*k[f#c#]	*	*k[f#c#]	*	*k[f#c#]	*	*k[f#c#]	*k[f#c#]	*k[f#c#]	*k[f#c#]	*k[f#c#]
*D:	*D:	*D:	*D:	*	*D:	*	*D:	*	*D:	*D:	*D:	*D:	*D:
*M2/4	*M2/4	*M2/4	*M2/4	*	*M2/4	*	*M2/4	*	*M2/4	*M2/4	*M2/4	*M2/4	*M2/4
=1	=1	=1	=1	=1	=1	=1	=1	=1	=1	=1	=1	=1	=1
!	!	!	!LO:TX:t=P:problem=brak tekstu słownego części "Dona"	!	!	!	!	!	!	!	!	!	!
!LO:TX:a:i:mod= :t=Dona ut kirie Allo	!LO:TX:a:i:mod= :t=Dona ut kirie Allo	!LO:TX:a:i:mod= :t=Dona nobis ut kirie\nAllo	!LO:TX:a:i:mod= :t=Dona nobis\nKyrie Allegro	!	!LO:TX:a:Bi:mod= :t=Allo	!	!LO:TX:a:i:mod= :t=Dono nobis\nUt kirie Allo	!	!LO:TX:a:i:mod= :t=Dona ut kirie Allo	!LO:TX:t=P:problem=zgodnie z RISM "cor 1, 2 parts missing"	!LO:TX:t=P:problem=zgodnie z RISM "cor 1, 2 parts missing"	!LO:TX:t=P:problem=brak informacji o partii w części "Dona"	!LO:TX:t=P:problem=brak informacji o partii w części "Dona"
!	!	!	!LO:MO:mod=8d	!LO:MO:null:mod=Do-	!	!	!	!	!	!	!	!	!
4D\yy	4ff#yy 4ayy 4d/yy	4ff#yy 4ayy 4d/yy	4d\yy	.	8ff#\	Do-	4dd\yy	.	4ff#\yy	2ryy	2ryy	2ryy	2ryy
!	!	!	!LO:MO:null:mod=8d@	!LO:MO:null:mod=-na	!	!	!	!	!	!	!	!	!
.	.	.	.	.	8ff#\	-na	.	.	.	.	.	.	.
!	!	!	!	!LO:MO:null:mod=no-	!	!	!	!	!	!	!	!	!
4D\yy	4ff#yy 4ayy 4d/yy	4ff#yy 4ayy 4d/yy	4d\yy	.	4ff#\	no-	4dd\yy	.	4ff#\yy	.	.	.	.
=2	=2	=2	=2	=2	=2	=2	=2	=2	=2	=2	=2	=2	=2
!	!	!	!	!LO:MO:null:mod=-bis	!	!	!	!	!	!	!	!	!
4D\yy	4ff#yy 4ayy 4d/yy	4ff#yy 4ayy 4d/yy	4d\yy	.	4ff#\	-bis	4dd\yy	.	4ff#\yy	2ryy	2ryy	2ryy	2ryy
4ryy	8ryy	8ryy	4ryy	.	4r	.	4ryy	.	4ryy	.	.	.	.
.	8dd\yy	8dd\yy	.	.	.	.	.	.	.	.	.	.	.
=3	=3	=3	=3	=3	=3	=3	=3	=3	=3	=3	=3	=3	=3
!	!	!	!LO:N:vis=0	!	!LO:N:vis=0	!	!	!	!LO:TX:t=P:problem=skreślony takt	!	!	!	!
8D\Lyy	8ff#\Lyy	8ff#\Lyy	1ryy	.	1r	.	8dd\Lyy	.	8dd\Lyy	2ryy	2ryy	2ryy	2ryy
8D\yy	8aa\yy	8aa\yy	.	.	.	.	8dd\yy	.	8dd\yy	.	.	.	.
8D\yy	8gg\yy	8gg\yy	.	.	.	.	8dd\yy	.	8dd\yy	.	.	.	.
8D\Jyy	8bb\Jyy	8bb\Jyy	.	.	.	.	8dd\Jyy	.	8dd\Jyy	.	.	.	.
=4	=4	=4	=4	=4	=4	=4	=4	=4	=4	=4	=4	=4	=4
8D\Lyy	8aa\yy	8aa\yy	.	.	.	.	8dd\Lyy	.	8dd\Lyy	2ryy	2ryy	2ryy	2ryy
8D\yy	4ddd\yy	4ddd\yy	.	.	.	.	8dd\yy	.	8dd\yy	.	.	.	.
8D\yy	.	.	.	.	.	.	8dd\yy	.	8dd\yy	.	.	.	.
8D\Jyy	8dd\yy	8dd\yy	.	.	.	.	8dd\Jyy	.	8dd\Jyy	.	.	.	.
=5	=5	=5	=5	=5	=5	=5	=5	=5	=5	=5	=5	=5	=5
!	!	!	!	!	!	!	!	!LO:DY:a:t=p&colon;	!LO:TX:t=P:problem=takt nr 5 zapisany repetycją	!	!	!	!
8D\Lyy	8ff#\Lyy	8ff#\Lyy	2ryy	.	2r	.	8dd\Lyy	py	8dd\Lyy	2ryy	2ryy	2ryy	2ryy
8D\yy	8aa\yy	8aa\yy	.	.	.	.	8dd\yy	.	8dd\yy	.	.	.	.
8D\yy	8gg\yy	8gg\yy	.	.	.	.	8dd\yy	.	8dd\yy	.	.	.	.
8D\Jyy	8bb\Jyy	8bb\Jyy	.	.	.	.	8dd\Jyy	.	8dd\Jyy	.	.	.	.
=6	=6	=6	=6	=6	=6	=6	=6	=6	=6	=6	=6	=6	=6
8D\Lyy	8aa\yy	8aa\yy	4ryy	.	4r	.	8dd\Lyy	.	8dd\Lyy	2ryy	2ryy	2ryy	2ryy
8D\yy	4ddd\yy	4ddd\yy	.	.	.	.	8dd\yy	.	8dd\yy	.	.	.	.
8D\yy	.	.	8ryy	.	8r	.	8dd\yy	.	8dd\yy	.	.	.	.
!	!	!	!LO:SIC:s=(8d	!LO:MO:null:mod=pa-	!	!	!	!	!	!	!	!	!
8F#\Jyy	8ff#\yy	8aa\yy	8d\yy	.	(8ff#\	pa-	8dd\Jyy	.	8ff#\Jyy	.	.	.	.
=7	=7	=7	=7	=7	=7	=7	=7	=7	=7	=7	=7	=7	=7
!	!	!	!	!	!LO:SIC:s=4gg	!	!	!	!	!	!	!	!
4G\yy	4ee\yy	4gg\yy	4e\yy	.	4gg\)	.	4ee\yy	.	4gg\yy	2ryy	2ryy	2ryy	2ryy
!	!	!	!LO:SIC:s=4c#)	!	!LO:SIC:s=4ee)	!	!	!	!	!	!	!	!
4A\yy	4cc#\yy	4ee\yy	4c#\yy	.	4ee\	.	4a/yy	.	4ee\yy	.	.	.	.
=8	=8	=8	=8	=8	=8	=8	=8	=8	=8	=8	=8	=8	=8
!	!	!	!	!LO:MO:null:mod=-cem	!	!	!	!	!	!	!	!	!
4D/yy	4dd\yy	4ff#\yy	4d\yy	.	4ff#\	-cem	4dd\yy	.	4ff#\yy	2ryy	2ryy	2ryy	2ryy
!	!	!	!	!LO:MO:null:mod=da	!	!	!	!	!	!	!	!	!
4d\yy	4ff#\yy	4aa\yy	4d\yy	.	4ff#\	da	4dd\yy	.	4ff#\yy	.	.	.	.
=9	=9	=9	=9	=9	=9	=9	=9	=9	=9	=9	=9	=9	=9
*	*	*	*2\right	*	*2\right	*	*	*	*	*	*	*	*
!	!	!	!	!LO:MO:null:mod=pa-	!	!	!	!	!	!	!	!	!
8D\Lyy	16dd\LLyy	16ff#\LLyy	2d\yy	.	2ff#\	pa-	8dd\Lyy	.	8ff#\Lyy	2ryy	2ryy	2ryy	2ryy
.	16ff#\yy	16ddd\yy	.	.	.	.	.	.	.	.	.	.	.
8E\yy	16ff#\yy	16ddd\yy	.	.	.	.	16dd\Lyy	.	16ff#\Lyy	.	.	.	.
.	16ff#\JJyy	16ddd\JJyy	.	.	.	.	16dd\JJyy	.	16ff#\JJyy	.	.	.	.
8F#\yy	16ff#\LLyy	16ddd\LLyy	.	.	.	.	8dd\Lyy	.	8ff#\Lyy	.	.	.	.
.	16ff#\yy	16ddd\yy	.	.	.	.	.	.	.	.	.	.	.
8G\Jyy	16ff#\yy	16ddd\yy	.	.	.	.	8dd\Jyy	.	8ff#\Jyy	.	.	.	.
.	16ff#\JJyy	16ddd\JJyy	.	.	.	.	.	.	.	.	.	.	.
!	!	!	!	!	!	!	!	!	!LO:LB:g=original	!	!	!	!
=10	=10	=10	=10	=10	=10	=10	=10	=10	=10	=10	=10	=10	=10
!LO:TX:t=P:problem=mixed beam	!	!	!	!LO:MO:null:mod=-cem	!	!	!	!	!	!	!	!	!
8A\Lyy	8ee\Lyy	8ccc#\Lyy	4c#\yy	.	4ee\	-cem	8a/Lyy	.	8ee\Lyy	2ryy	2ryy	2ryy	2ryy
8AA/yy	8cc#\yy	8ee\yy	.	.	.	.	8a/yy	.	8ee\yy	.	.	.	.
!	!	!	!	!LO:MO:null:mod=da	!	!	!	!	!	!	!	!	!
8C#/yy	8ee\yy	8ccc#\yy	4c#\yy	.	4ee\	da	8a/yy	.	8ee\yy	.	.	.	.
8AA/Jyy	8cc#\Jyy	8ee\Jyy	.	.	.	.	8a/Jyy	.	8ee\Jyy	.	.	.	.
=11	=11	=11	=11	=11	=11	=11	=11	=11	=11	=11	=11	=11	=11
!	!	!	!	!LO:MO:null:mod=pa-	!	!	!	!	!	!	!	!	!
8D\Lyy	16dd\LLyy	16dd\LLyy	2d\yy	.	2ff#\	pa-	8dd\Lyy	.	8ff#\Lyy	2ryy	2ryy	2ryy	2ryy
.	16ff#\yy	16ddd\yy	.	.	.	.	.	.	.	.	.	.	.
8E\yy	16ff#\yy	16ddd\yy	.	.	.	.	16dd\Lyy	.	16ff#\Lyy	.	.	.	.
.	16ff#\JJyy	16ddd\JJyy	.	.	.	.	16dd\JJyy	.	16ff#\JJyy	.	.	.	.
8F#\yy	16ff#\LLyy	16ddd\LLyy	.	.	.	.	8dd\Lyy	.	8ff#\Lyy	.	.	.	.
.	16ff#\yy	16ddd\yy	.	.	.	.	.	.	.	.	.	.	.
8G\Jyy	16ff#\yy	16ddd\yy	.	.	.	.	8dd\Jyy	.	8ff#\Jyy	.	.	.	.
.	16ff#\JJyy	16ddd\JJyy	.	.	.	.	.	.	.	.	.	.	.
=12	=12	=12	=12	=12	=12	=12	=12	=12	=12	=12	=12	=12	=12
!LO:TX:t=P:problem=mixed beam	!	!	!	!LO:MO:null:mod=-cem	!	!	!	!	!	!	!	!	!
8A\Lyy	4ee\yy	4ccc#\yy	4c#\yy	.	4ee\	-cem	4a/yy	.	4ee\yy	2ryy	2ryy	2ryy	2ryy
8AA/yy	.	.	.	.	.	.	.	.	.	.	.	.	.
!	!	!	!	!LO:MO:null:mod=da	!	!	!	!	!	!	!	!	!
8A\yy	16gg\LLyy	16ccc#\LLyy	4e\yy	.	4gg\	da	8a/Lyy	.	8ee\Lyy	.	.	.	.
.	16gg\yy	16ccc#\yy	.	.	.	.	.	.	.	.	.	.	.
8B\Jyy	16gg\yy	16ccc#\yy	.	.	.	.	8a/Jyy	.	8ee\Jyy	.	.	.	.
.	16gg\JJyy	16ccc#\JJyy	.	.	.	.	.	.	.	.	.	.	.
!	!	!	!	!	!LO:LB:g=original	!	!	!	!	!	!	!	!
=13	=13	=13	=13	=13	=13	=13	=13	=13	=13	=13	=13	=13	=13
!	!	!	!	!LO:MO:null:mod=pa-	!	!	!	!	!	!	!	!	!
8c#\Lyy	16gg\LLyy	16ccc#\LLyy	2e\yy	.	2gg\	pa-	8a/Lyy	.	8ee\Lyy	2ryy	2ryy	2ryy	2ryy
.	16gg\yy	16ccc#\yy	.	.	.	.	.	.	.	.	.	.	.
!	!	!	!	!	!	!	!LO:MO:mod=8a	!	!	!	!	!	!
8d\yy	16gg\yy	16ccc#\yy	.	.	.	.	16a/Lyy	.	8ee\yy	.	.	.	.
!	!	!	!	!	!	!	!LO:MO:mod=.	!	!	!	!	!	!
.	16gg\JJyy	16ccc#\JJyy	.	.	.	.	16a/Jyy	.	.	.	.	.	.
8e\yy	16gg\LLyy	16ccc#\LLyy	.	.	.	.	8a/yy	.	8ee\yy	.	.	.	.
.	16gg\yy	16ccc#\yy	.	.	.	.	.	.	.	.	.	.	.
8A\Jyy	16gg\yy	16ccc#\yy	.	.	.	.	8a/Jyy	.	8ee\Jyy	.	.	.	.
.	16gg\JJyy	16ccc#\JJyy	.	.	.	.	.	.	.	.	.	.	.
!	!	!LO:LB:g=original	!LO:LB:g=original	!	!	!	!	!	!	!	!	!	!
=14	=14	=14	=14	=14	=14	=14	=14	=14	=14	=14	=14	=14	=14
!	!	!	!	!LO:MO:null:mod=-cem	!	!	!	!	!	!	!	!	!
4d\yy	8ff#\Lyy	8ddd\Lyy	4d\yy	.	4ff#\	-cem	4dd\yy	.	4ff#\yy	2ryy	2ryy	2ryy	2ryy
.	8ff#\yy	8aa\yy	.	.	.	.	.	.	.	.	.	.	.
!	!	!	!	!LO:MO:null:mod=da	!	!	!	!	!	!	!	!	!
4D/yy	8dd\yy	8ff#\yy	4d\yy	.	4ff#\	da	8dd\Lyy	.	8ff#\Lyy	.	.	.	.
.	8ff#\Jyy	8ddd\Jyy	.	.	.	.	8dd\Jyy	.	8ff#\Jyy	.	.	.	.
!	!LO:LB:g=original	!	!	!	!	!	!	!	!	!	!	!	!
=15	=15	=15	=15	=15	=15	=15	=15	=15	=15	=15	=15	=15	=15
!	!	!	!	!LO:MO:null:mod=pa-	!	!	!	!	!	!	!	!	!
4A\yy	4ee\yy	4ee\yy	2c#\yy	.	2ee\	pa-	4a/yy	.	4ee\yy	2ryy	2ryy	2ryy	2ryy
4AA/yy	4ee\yy	4ccc#\yy	.	.	.	.	4a/yy	.	4ee\yy	.	.	.	.
=16	=16	=16	=16	=16	=16	=16	=16	=16	=16	=16	=16	=16	=16
!	!	!	!	!LO:MO:null:mod=-cem	!	!	!	!	!	!	!	!	!
4D/yy	4ff#\yy	4ddd\yy	4d\yy	.	4ff#\	-cem	4dd\yy	.	4ff#\yy	2ryy	2ryy	2ryy	2ryy
!	!	!LO:TX:t=P:problem=mixed beam	!	!LO:MO:null:mod=da	!	!	!	!	!	!	!	!	!
4d\yy	4ff#\yy	16aa\LLyy	4d\yy	.	4ff#\	da	4dd\yy	.	4ff#\yy	.	.	.	.
.	.	16a/yy	.	.	.	.	.	.	.	.	.	.	.
.	.	16aa\yy	.	.	.	.	.	.	.	.	.	.	.
.	.	16a/JJyy	.	.	.	.	.	.	.	.	.	.	.
=17	=17	=17	=17	=17	=17	=17	=17	=17	=17	=17	=17	=17	=17
!	!	!LO:TX:t=P:problem=mixed beam	!	!LO:MO:null:mod=pa-	!	!	!	!	!	!	!	!	!
8c#\Lyy	16ee\LLyy	16aa\LLyy	8c#\Lyy	.	8ee\L	pa-	4a/yy	.	4ee\yy	2ryy	2ryy	2ryy	2ryy
.	16ee\yy	16a/yy	.	.	.	.	.	.	.	.	.	.	.
8B\yy	16dd\yy	16aa\yy	8d\yy	.	8dd\	.	.	.	.	.	.	.	.
.	16dd\JJyy	16a/JJyy	.	.	.	.	.	.	.	.	.	.	.
8A\yy	16cc#\LLyy	16aa\LLyy	8e\yy	.	8cc#\	.	4ryy	.	4ryy	.	.	.	.
.	16cc#\yy	16a/yy	.	.	.	.	.	.	.	.	.	.	.
!	!	!	!LO:SIC:v:s=8d\J	!	!	!	!	!	!	!	!	!	!
8G#X\Jyy	16b\yy	16aa\yy	8c#\Jyy	.	8b\J	.	.	.	.	.	.	.	.
.	16b\JJyy	16a/JJyy	.	.	.	.	.	.	.	.	.	.	.
=18	=18	=18	=18	=18	=18	=18	=18	=18	=18	=18	=18	=18	=18
!	!	!LO:TX:t=P:problem=mixed beam	!	!	!	!	!	!	!	!	!	!	!
8A\Lyy	16cc#\LLyy	16aa\LLyy	8c#\Lyy	.	8cc#\L	.	4a/yy	.	4ee\yy	2ryy	2ryy	2ryy	2ryy
!	!LO:SIC:s=16cc#	!	!	!	!	!	!	!	!	!	!	!	!
.	16cc#\JJyy	16a/yy	.	.	.	.	.	.	.	.	.	.	.
!	!LO:SIC:s=16dd	!	!	!	!LO:SIC:s=8ddJ	!	!	!	!	!	!	!	!
8B\yy	16dd\LLyy	16aa\yy	8B\Jyy	.	8dd\	.	.	.	.	.	.	.	.
.	16dd\JJyy	16a/JJyy	.	.	.	.	.	.	.	.	.	.	.
!	!	!	!	!LO:MO:null:mod=-cem	!	!	!	!	!	!	!	!	!
8c#\yy	16ee\LLyy	16aa\LLyy	8A\yy	.	8ee\	-cem	4ryy	.	4ryy	.	.	.	.
.	16ee\yy	16a/yy	.	.	.	.	.	.	.	.	.	.	.
!	!	!	!	!LO:MO:null:mod=da	!LO:SIC:s=8ff#	!	!	!	!	!	!	!	!
8d\Jyy	16ff#\yy	16aa\yy	8d\yy	.	8ff#\J	da	.	.	.	.	.	.	.
.	16ff#\JJyy	16a/JJyy	.	.	.	.	.	.	.	.	.	.	.
!	!	!	!	!	!	!	!LO:LB:g=original	!	!	!	!	!	!
=19	=19	=19	=19	=19	=19	=19	=19	=19	=19	=19	=19	=19	=19
!	!	!LO:TX:t=P:problem=mixed beam	!	!LO:MO:null:mod=pa-	!	!	!	!	!	!	!	!	!
8c#\Lyy	16ee\LLyy	16aa\LLyy	8c#\Lyy	.	8ee\L	pa-	4a/yy	.	4ee\yy	2ryy	2ryy	2ryy	2ryy
.	16ee\yy	16a/yy	.	.	.	.	.	.	.	.	.	.	.
8B\yy	16dd\yy	16aa\yy	8d\yy	.	8dd\	.	.	.	.	.	.	.	.
.	16dd\JJyy	16a/JJyy	.	.	.	.	.	.	.	.	.	.	.
8A\yy	16cc#\LLyy	16aa\LLyy	8e\yy	.	8cc#\	.	4ryy	.	4ryy	.	.	.	.
.	16cc#\yy	16a/yy	.	.	.	.	.	.	.	.	.	.	.
8G#X\Jyy	16b\yy	16aa\yy	8d\Jyy	.	8b\J	.	.	.	.	.	.	.	.
.	16b\JJyy	16a/JJyy	.	.	.	.	.	.	.	.	.	.	.
!LO:LB:g=original	!	!	!	!	!	!	!	!	!	!	!	!	!
=20	=20	=20	=20	=20	=20	=20	=20	=20	=20	=20	=20	=20	=20
!	!LO:N:vis=4	!LO:TX:t=P:problem=mixed beam	!	!LO:MO:null:mod=-cem	!	!	!	!	!	!	!	!	!
8A\Lyy	8cc#\yy	8aa\Lyy	4c#\yy	.	8cc#\	-cem	4a/yy	.	4ee\yy	2ryy	2ryy	2ryy	2ryy
8A\yy	4a\yy	8a/Jyy	.	.	4r	.	.	.	.	.	.	.	.
!	!	!LO:TX:t=P:problem=mixed beam	!	!	!	!	!	!	!	!	!	!	!
8A\yy	.	8aa\Lyy	8ryy	.	.	.	4ryy	.	4ryy	.	.	.	.
!	!	!	!	!LO:MO:null:mod=da	!	!	!	!	!	!	!	!	!
8cn\Jyy	16ee\LLyy	16gg\Lyy	8cn\yy	.	8ee\	da	.	.	.	.	.	.	.
.	16ee\JJyy	16g/JJyy	.	.	.	.	.	.	.	.	.	.	.
=21	=21	=21	=21	=21	=21	=21	=21	=21	=21	=21	=21	=21	=21
!	!	!LO:TX:t=P:problem=mixed beam	!	!LO:MO:null:mod=pa-	!	!	!LO:N:vis=00	!	!LO:N:vis=00	!	!	!	!
8B\Lyy	16dd\LLyy	16gg\LLyy	8B\Lyy	.	8dd\L	pa-	0ryy	.	0ryy	2ryy	2ryy	2ryy	2ryy
.	16dd\yy	16g/yy	.	.	.	.	.	.	.	.	.	.	.
!	!	!	!LO:SIC:v:s=8cn\	!	!	!	!	!	!	!	!	!	!
8A\yy	16ccn\yy	16gg\yy	8c#\yy	.	8ccn\	.	.	.	.	.	.	.	.
.	16cc\JJyy	16g/JJyy	.	.	.	.	.	.	.	.	.	.	.
!	!	!LO:TX:t=P:problem=mixed beam	!	!	!	!	!	!	!	!	!	!	!
8G\yy	16b\LLyy	16gg\LLyy	8d\yy	.	8b\	.	.	.	.	.	.	.	.
.	16b\yy	16g/yy	.	.	.	.	.	.	.	.	.	.	.
!	!	!	!LO:SIC:v:s=8c\J	!	!	!	!	!	!	!	!	!	!
8F#\Jyy	16a\yy	16gg\yy	8c#\Jyy	.	8a\J	.	.	.	.	.	.	.	.
.	16a\JJyy	16g/JJyy	.	.	.	.	.	.	.	.	.	.	.
=22	=22	=22	=22	=22	=22	=22	=22	=22	=22	=22	=22	=22	=22
!	!	!LO:TX:t=P:problem=mixed beam	!	!	!	!	!	!	!	!	!	!	!
8G\Lyy	16b\LLyy	16gg\LLyy	8B\Lyy	.	8b\L	.	.	.	.	2ryy	2ryy	2ryy	2ryy
.	16b\yy	16g/yy	.	.	.	.	.	.	.	.	.	.	.
!	!LO:SIC:v:s=16ccn\	!	!	!	!LO:SIC:s=8ccJ	!	!	!	!	!	!	!	!
8A\yy	16cc#\yy	16gg\yy	8A\Jyy	.	8ccn\	.	.	.	.	.	.	.	.
!	!LO:SIC:v:s=16cc\JJ	!	!	!	!	!	!	!	!	!	!	!	!
.	16cc#\JJyy	16g/JJyy	.	.	.	.	.	.	.	.	.	.	.
!	!	!	!	!LO:MO:null:mod=-cem	!	!	!	!	!	!	!	!	!
8B\yy	16dd\LLyy	16gg\LLyy	8G/yy	.	8dd\	-cem	.	.	.	.	.	.	.
.	16dd\yy	16g/yy	.	.	.	.	.	.	.	.	.	.	.
!	!	!	!	!LO:MO:null:mod=da	!LO:SIC:s=8ee	!	!	!	!	!	!	!	!
8cn\Jyy	16ee\yy	16gg\yy	8cn\yy	.	8ee\J	da	.	.	.	.	.	.	.
.	16ee\JJyy	16g/JJyy	.	.	.	.	.	.	.	.	.	.	.
!	!	!	!	!	!LO:LB:g=original	!	!	!	!	!	!	!	!
=23	=23	=23	=23	=23	=23	=23	=23	=23	=23	=23	=23	=23	=23
!	!	!LO:TX:t=P:problem=mixed beam	!	!LO:MO:null:mod=pa-	!	!	!	!	!	!	!	!	!
8B\Lyy	16dd\LLyy	16gg\LLyy	8B\Lyy	.	8dd\L	pa-	.	.	.	2ryy	2ryy	2ryy	2ryy
.	16dd\yy	16g/yy	.	.	.	.	.	.	.	.	.	.	.
!	!LO:SIC:v:s=16ccn\	!	!LO:SIC:v:s=8cn\	!	!LO:SIC:v:s=8ccn\	!	!	!	!	!	!	!	!
8A\yy	16cc#\yy	16gg\yy	8c#\yy	.	8cc#\	.	.	.	.	.	.	.	.
!	!LO:SIC:v:s=16cc\JJ	!	!	!	!	!	!	!	!	!	!	!	!
.	16cc#\JJyy	16g/JJyy	.	.	.	.	.	.	.	.	.	.	.
!	!	!LO:TX:t=P:problem=mixed beam	!	!	!	!	!	!	!	!	!	!	!
8G\yy	16b\LLyy	16gg\LLyy	8d\yy	.	8b\	.	.	.	.	.	.	.	.
.	16b\yy	16g/yy	.	.	.	.	.	.	.	.	.	.	.
!	!	!	!LO:SIC:v:s=8c\J	!	!	!	!	!	!	!	!	!	!
8F#\Jyy	16a\yy	16gg\yy	8c#\Jyy	.	8a\J	.	.	.	.	.	.	.	.
.	16a\JJyy	16g/JJyy	.	.	.	.	.	.	.	.	.	.	.
=24	=24	=24	=24	=24	=24	=24	=24	=24	=24	=24	=24	=24	=24
!	!	!LO:TX:t=P:problem=mixed beam	!	!LO:MO:null:mod=-cem	!	!	!	!	!	!	!	!	!
8G\Lyy	8b\Lyy	8gg\Lyy	4B\yy	.	4b\	-cem	.	.	.	2ryy	2ryy	2ryy	2ryy
8G\yy	8g\Jyy	8g/Jyy	.	.	.	.	.	.	.	.	.	.	.
!	!	!LO:TX:t=P:problem=mixed beam	!	!	!	!	!	!	!	!	!	!	!
8G\yy	8g/Lyy	8gg\Lyy	8ryy	.	8r	.	.	.	.	.	.	.	.
!	!	!	!	!LO:MO:null:mod=da	!	!	!	!	!	!	!	!	!
8G\Jyy	16b/Lyy	16dd\Lyy	8B\yy	.	8dd\	da	.	.	.	.	.	.	.
.	16b/JJyy	16d/JJyy	.	.	.	.	.	.	.	.	.	.	.
=25	=25	=25	=25	=25	=25	=25	=25	=25	=25	=25	=25	=25	=25
!	!	!LO:TX:t=P:problem=mixed beam	!	!LO:MO:null:mod=pa-	!	!	!LO:N:vis=0	!	!LO:N:vis=0	!	!	!	!
8F#\Lyy	16a/LLyy	16dd\LLyy	8A/Lyy	.	2dd\	pa-	1ryy	.	1ryy	2ryy	2ryy	2ryy	2ryy
.	16a/yy	16d/yy	.	.	.	.	.	.	.	.	.	.	.
8E\yy	16g/yy	16dd\yy	8G/yy	.	.	.	.	.	.	.	.	.	.
.	16g/JJyy	16d/JJyy	.	.	.	.	.	.	.	.	.	.	.
!	!	!LO:TX:t=P:problem=mixed beam	!	!	!	!	!	!	!	!	!	!	!
8D\yy	16f#/LLyy	16dd\LLyy	8F#/yy	.	.	.	.	.	.	.	.	.	.
.	16f#/yy	16d/yy	.	.	.	.	.	.	.	.	.	.	.
8C#X\Jyy	16e/yy	16dd\yy	8E/Jyy	.	.	.	.	.	.	.	.	.	.
.	16e/JJyy	16d/JJyy	.	.	.	.	.	.	.	.	.	.	.
!	!	!LO:LB:g=original	!LO:LB:g=original	!	!	!	!	!	!	!	!	!	!
=26	=26	=26	=26	=26	=26	=26	=26	=26	=26	=26	=26	=26	=26
!	!	!LO:TX:t=P:problem=mixed beam	!	!	!	!	!	!	!	!	!	!	!
8D\Lyy	16f#/LLyy	16dd\LLyy	8F#/Lyy	.	4dd\	-cem	.	.	.	2ryy	2ryy	2ryy	2ryy
.	16f#/yy	16d/yy	.	.	.	.	.	.	.	.	.	.	.
8E\yy	16g/yy	16dd\yy	8G/Jyy	.	.	.	.	.	.	.	.	.	.
.	16g/JJyy	16d/JJyy	.	.	.	.	.	.	.	.	.	.	.
!	!	!LO:TX:t=P:problem=mixed beam	!	!LO:MO:null:mod=-cem	!	!	!	!	!	!	!	!	!
8F#\yy	16a/LLyy	16dd\LLyy	8A\yy	.	4dd\	da	.	.	.	.	.	.	.
.	16a/yy	16d/yy	.	.	.	.	.	.	.	.	.	.	.
!	!	!	!	!LO:MO:null:mod=da	!	!	!	!	!	!	!	!	!
8G\Jyy	16b/yy	16dd\yy	8B\yy	.	.	.	.	.	.	.	.	.	.
.	16b/JJyy	16d/JJyy	.	.	.	.	.	.	.	.	.	.	.
!	!LO:LB:g=original	!	!	!	!	!	!	!	!	!	!	!	!
=27	=27	=27	=27	=27	=27	=27	=27	=27	=27	=27	=27	=27	=27
!	!	!LO:TX:t=P:problem=mixed beam	!	!LO:MO:null:mod=pa-	!	!	!	!	!	!	!	!	!
8F#\Lyy	16a/LLyy	16dd\LLyy	8A\Lyy	.	2dd\	pa-	2ryy	.	2ryy	2ryy	2ryy	2ryy	2ryy
.	16a/yy	16d/yy	.	.	.	.	.	.	.	.	.	.	.
8E\yy	16g/yy	16dd\yy	8G\yy	.	.	.	.	.	.	.	.	.	.
.	16g/JJyy	16d/JJyy	.	.	.	.	.	.	.	.	.	.	.
!	!	!LO:TX:t=P:problem=mixed beam	!	!	!	!	!	!	!	!	!	!	!
8D\yy	16f#/LLyy	16dd\LLyy	8F#\yy	.	.	.	.	.	.	.	.	.	.
.	16f#/yy	16d/yy	.	.	.	.	.	.	.	.	.	.	.
8C#\Jyy	16e/yy	16dd\yy	8E\Jyy	.	.	.	.	.	.	.	.	.	.
.	16e/JJyy	16d/JJyy	.	.	.	.	.	.	.	.	.	.	.
=28	=28	=28	=28	=28	=28	=28	=28	=28	=28	=28	=28	=28	=28
!	!	!	!	!LO:MO:null:mod=-cem	!	!	!	!	!	!	!	!	!
8D\Lyy	16f#/LLyy	16dd\LLyy	4F#/yy	.	4dd\	-cem	8dd\Lyy	.	8ff#\Lyy	2ryy	2ryy	2ryy	2ryy
.	16f#/yy	16dd\yy	.	.	.	.	.	.	.	.	.	.	.
8E\yy	16f#/yy	16dd\yy	.	.	.	.	16dd\Lyy	.	16ff#\Lyy	.	.	.	.
.	16f#/JJyy	16dd\JJyy	.	.	.	.	16dd\JJyy	.	16ff#\JJyy	.	.	.	.
!	!	!	!	!LO:MO:null:mod=da	!	!	!	!	!	!	!	!	!
8F#\yy	16ff#\LLyy	16ddd\LLyy	4A/yy	.	4dd\	da	8dd\Lyy	.	8ff#\Lyy	.	.	.	.
.	16ff#\yy	16ddd\yy	.	.	.	.	.	.	.	.	.	.	.
8G\Jyy	16ff#\yy	16ddd\yy	.	.	.	.	8dd\Jyy	.	8ff#\Jyy	.	.	.	.
.	16ff#\JJyy	16ddd\JJyy	.	.	.	.	.	.	.	.	.	.	.
=29	=29	=29	=29	=29	=29	=29	=29	=29	=29	=29	=29	=29	=29
!	!	!LO:TX:t=P:problem=skreślony takt	!	!LO:MO:null:mod=pa-	!	!	!	!	!	!	!	!	!
4A\yy	16ee\LLyy	16ccc#\LLyy	2c#\yy	.	2ee\	pa-	8a/Lyy	.	8ee\Lyy	2ryy	2ryy	2ryy	2ryy
.	16ee\yy	16ccc#\yy	.	.	.	.	.	.	.	.	.	.	.
.	16ee\yy	16ccc#\yy	.	.	.	.	16a/Lyy	.	16ee\Lyy	.	.	.	.
.	16ee\JJyy	16ccc#\JJyy	.	.	.	.	16a/JJyy	.	16ee\JJyy	.	.	.	.
4AA/yy	16ee\LLyy	16ccc#\LLyy	.	.	.	.	8a/Lyy	.	8ee\Lyy	.	.	.	.
.	16ee\yy	16ccc#\yy	.	.	.	.	.	.	.	.	.	.	.
.	16ee\yy	16ccc#\yy	.	.	.	.	8a/Jyy	.	8ee\Jyy	.	.	.	.
.	16ee\JJyy	16ccc#\JJyy	.	.	.	.	.	.	.	.	.	.	.
=30	=30	=30	=30	=30	=30	=30	=30	=30	=30	=30	=30	=30	=30
!	!	!	!	!LO:MO:null:mod=-cem	!	!	!	!	!	!	!	!	!
4D/yy	16ff#\LLyy	16ddd\LLyy	4d\yy	.	4ff#\	-cem	8dd\Lyy	.	8ff#\Lyy	2ryy	2ryy	2ryy	2ryy
.	16ff#\yy	16ddd\yy	.	.	.	.	.	.	.	.	.	.	.
.	16ff#\yy	16ddd\yy	.	.	.	.	16dd\Lyy	.	16ff#\Lyy	.	.	.	.
!	!	!	!	!	!	!	!LO:SIC:s=16ddJJ	!	!LO:SIC:s=16ff#JJ	!	!	!	!
.	16ff#\JJyy	16ddd\JJyy	.	.	.	.	16dd\Jyy	.	16ff#\Jyy	.	.	.	.
!	!	!	!	!LO:MO:null:mod=da	!	!	!LO:SIC:s=8ddL	!	!LO:SIC:s=8ff#L	!	!	!	!
4d\yy	16ff#\LLyy	16ddd\LLyy	4d\yy	.	4ff#\	da	8dd\yy	.	8ff#\yy	.	.	.	.
.	16ff#\yy	16ddd\yy	.	.	.	.	.	.	.	.	.	.	.
.	16ff#\yy	16ddd\yy	.	.	.	.	8dd\Jyy	.	8ff#\Jyy	.	.	.	.
.	16ff#\JJyy	16ddd\JJyy	.	.	.	.	.	.	.	.	.	.	.
=31	=31	=31	=31	=31	=31	=31	=31	=31	=31	=31	=31	=31	=31
!	!	!	!	!LO:MO:null:mod=pa-	!	!	!	!	!	!	!	!	!
4d\yy	16ff#\LLyy	16ddd\LLyy	2d\yy	.	2ff#\	pa-	8dd\Lyy	.	8ff#\Lyy	2ryy	2ryy	2ryy	2ryy
.	16ff#\yy	16ddd\yy	.	.	.	.	.	.	.	.	.	.	.
.	16ff#\yy	16ddd\yy	.	.	.	.	8dd\yy	.	8ff#\yy	.	.	.	.
.	16ff#\JJyy	16ddd\JJyy	.	.	.	.	.	.	.	.	.	.	.
4D/yy	16ff#\LLyy	16ddd\LLyy	.	.	.	.	8dd\yy	.	8ff#\yy	.	.	.	.
.	16ff#\yy	16ddd\yy	.	.	.	.	.	.	.	.	.	.	.
.	16ff#\yy	16ddd\yy	.	.	.	.	8dd\Jyy	.	8ff#\Jyy	.	.	.	.
.	16ff#\JJyy	16ddd\JJyy	.	.	.	.	.	.	.	.	.	.	.
=32	=32	=32	=32	=32	=32	=32	=32	=32	=32	=32	=32	=32	=32
!	!	!	!	!LO:MO:null:mod=-cem.	!	!LO:SIC:s=-cem.	!	!	!	!	!	!	!
4A\yy	4ee\yy	4ccc#\yy	4c#\yy	.	4ee\	-cem	4a/yy	.	4ee\yy	2ryy	2ryy	2ryy	2ryy
4ryy	4ryy	4ryy	4ryy	.	4r	.	4ryy	.	4ryy	.	.	.	.
=33	=33	=33	=33	=33	=33	=33	=33	=33	=33	=33	=33	=33	=33
!	!	!	!LO:MO:mod=8e	!LO:MO:null:mod=Do-	!	!LO:SIC:s=Do-	!	!	!	!	!	!	!
4A\yy	4eeyy 4cc#yy 4a/yy	4eeyy 4cc#yy 4a/yy	4e\yy	.	8cc#\	do-	4a/yy	.	4ee\yy	2ryy	2ryy	2ryy	2ryy
!	!	!	!LO:MO:null:mod=8e@	!LO:MO:null:mod=-na	!	!	!	!	!	!	!	!	!
.	.	.	.	.	8cc#\	-na	.	.	.	.	.	.	.
!	!	!	!	!LO:MO:null:mod=no-	!	!	!	!	!	!	!	!	!
4AA/yy	4eeyy 4cc#yy 4a/yy	4eeyy 4cc#yy 4a/yy	4e\yy	.	4cc#\	no-	4a/yy	.	4ee\yy	.	.	.	.
!	!	!	!	!	!LO:LB:g=original	!	!	!	!LO:LB:g=original	!	!	!	!
=34	=34	=34	=34	=34	=34	=34	=34	=34	=34	=34	=34	=34	=34
!	!	!	!	!LO:MO:null:mod=-bis	!	!	!	!	!	!	!	!	!
4AA/yy	4eeyy 4cc#yy 4a/yy	4eeyy 4cc#yy 4a/yy	4e\yy	.	4cc#\	-bis	4a/yy	.	4ee\yy	2ryy	2ryy	2ryy	2ryy
4ryy	8ryy	8ryy	4ryy	.	4r	.	4ryy	.	4ryy	.	.	.	.
.	8a/yy	8a/yy	.	.	.	.	.	.	.	.	.	.	.
=35	=35	=35	=35	=35	=35	=35	=35	=35	=35	=35	=35	=35	=35
!	!	!	!LO:N:vis=0	!	!LO:N:vis=00	!	!	!	!	!	!	!	!
!	!	!	!	!	!LO:MO:mod=2r	!	!	!	!	!	!	!	!
8AA/Lyy	(8a\Lyy	(8cc#\Lyy	1ryy	.	0r	.	8a/Lyy	.	8a/Lyy	2ryy	2ryy	2ryy	2ryy
8AA/yy	8cc#\)yy	8ee\)yy	.	.	.	.	8a/yy	.	8a/yy	.	.	.	.
8AA/yy	(8b\yy	(8dd\yy	.	.	.	.	8a/yy	.	8a/yy	.	.	.	.
8AA/Jyy	8dd\J)yy	8ff#\J)yy	.	.	.	.	8a/Jyy	.	8a/Jyy	.	.	.	.
=36	=36	=36	=36	=36	=36	=36	=36	=36	=36	=36	=36	=36	=36
!	!	!	!	!	!LO:MO:null:mod=2r	!	!	!	!	!	!	!	!
8AA/Lyy	8cc#\yy	8ee\yy	.	.	.	.	8a/Lyy	.	8a/Lyy	2ryy	2ryy	2ryy	2ryy
8AA/yy	4cc#\yy	4aa\yy	.	.	.	.	8a/yy	.	8a/yy	.	.	.	.
8AA/yy	.	.	.	.	.	.	8a/yy	.	8a/yy	.	.	.	.
8AA/Jyy	8a/yy	8a/yy	.	.	.	.	8a/Jyy	.	8a/Jyy	.	.	.	.
=37	=37	=37	=37	=37	=37	=37	=37	=37	=37	=37	=37	=37	=37
!	!LO:SIC:s=(8aL	!	!	!	!LO:MO:null:mod=2r	!	!	!	!	!	!	!	!
8AA/Lyy	8a\Lyy	(8cc#\Lyy	2ryy	.	.	.	8a/Lyy	.	8a/Lyy	2ryy	2ryy	2ryy	2ryy
!	!LO:SIC:s=8cc#)	!	!	!	!	!	!	!	!	!	!	!	!
8AA/yy	8cc#\yy	8ee\)yy	.	.	.	.	8a/yy	.	8a/yy	.	.	.	.
!	!LO:SIC:s=(8b	!	!	!	!	!	!	!	!	!	!	!	!
8AA/yy	8b\yy	(8dd\yy	.	.	.	.	8a/yy	.	8a/yy	.	.	.	.
!	!LO:SIC:s=8ddJ)	!	!	!	!	!	!	!	!	!	!	!	!
8AA/Jyy	8dd\Jyy	8ff#\J)yy	.	.	.	.	8a/Jyy	.	8a/Jyy	.	.	.	.
!	!	!LO:LB:g=original	!	!	!	!	!	!	!	!	!	!	!
!!LO:MO:ori
=38	=38	=38	=38	=38	=38	=38	=38	=38	=38	=38	=38	=38	=38
!LO:TX:t=P:problem=zbędne pauzy w S	!LO:TX:t=P:problem=zbędne pauzy w S	!LO:TX:t=P:problem=zbędne pauzy w S	!LO:TX:t=P:problem=zbędne pauzy w S	!	!LO:TX:t=P:problem=zbędne pauzy w tt. 38-39	!	!LO:TX:t=P:problem=zbędne pauzy w S	!	!LO:TX:t=P:problem=zbędne pauzy w S	!	!	!	!
!	!	!	!	!	!LO:MO:null:mod=2r	!	!	!	!	!	!	!	!
2ryy	2ryy	2ryy	2ryy	.	.	.	2ryy	.	2ryy	2ryy	2ryy	2ryy	2ryy
=39	=39	=39	=39	=39	=39	=39	=39	=39	=39	=39	=39	=39	=39
2ryy	2ryy	2ryy	2ryy	.	2r	.	2ryy	.	2ryy	2ryy	2ryy	2ryy	2ryy
!!LO:MO:end
=40	=40	=40	=40	=40	=40	=40	=40	=40	=40	=40	=40	=40	=40
8AA/Lyy	8cc#\yy	8ee\yy	4ryy	.	4r	.	8a/Lyy	.	8a/Lyy	2ryy	2ryy	2ryy	2ryy
8AA/yy	4cc#\yy	4aa\yy	.	.	.	.	8a/yy	.	8a/yy	.	.	.	.
8AA/yy	.	.	8ryy	.	8r	.	8a/yy	.	8a/yy	.	.	.	.
!	!	!	!LO:SIC:s=(8c#	!LO:MO:null:mod=pa-	!LO:SIC:s=(8ee	!	!	!	!	!	!	!	!
8C#/Jyy	8cc#\yy	8ee\yy	8c#\yy	.	8ee\	pa-	8a/Jyy	.	8a/Jyy	.	.	.	.
=41	=41	=41	=41	=41	=41	=41	=41	=41	=41	=41	=41	=41	=41
4D\yy	4b\yy	4dd\yy	4B\yy	.	4dd\	.	4ee\yy	.	4ee\yy	2ryy	2ryy	2ryy	2ryy
!	!	!	!LO:SIC:s=4G#)	!	!LO:SIC:s=4b)	!	!	!	!	!	!	!	!
4E\yy	4g#X/yy	4b\yy	4G#X/yy	.	4b\	.	4ee\yy	.	4ee\yy	.	.	.	.
!LO:LB:g=original	!LO:LB:g=original	!	!	!	!	!	!	!	!	!	!	!	!
=42	=42	=42	=42	=42	=42	=42	=42	=42	=42	=42	=42	=42	=42
!	!	!	!	!LO:MO:null:mod=-cem	!	!	!	!	!	!	!	!	!
4AA/yy	4a/yy	4cc#\yy	4A\yy	.	4cc#\	-cem	4a/yy	.	4ee\yy	2ryy	2ryy	2ryy	2ryy
!	!	!	!	!LO:MO:null:mod=da	!	!	!	!	!	!	!	!	!
4A\yy	4cc#\yy	4ee\yy	4A\yy	.	4cc#\	da	4ee\yy	.	4ee\yy	.	.	.	.
=43	=43	=43	=43	=43	=43	=43	=43	=43	=43	=43	=43	=43	=43
!	!	!	!	!LO:MO:null:mod=pa-	!	!	!	!	!	!	!	!	!
8AA/Lyy	16cc#\LLyy	16aa\LLyy	2A\yy	.	2cc#\	pa-	8a/Lyy	.	8ee\Lyy	2ryy	2ryy	2ryy	2ryy
.	16cc#\yy	16aa\yy	.	.	.	.	.	.	.	.	.	.	.
8BB/yy	16cc#\yy	16aa\yy	.	.	.	.	16a/Lyy	.	16ee\Lyy	.	.	.	.
.	16cc#\JJyy	16aa\JJyy	.	.	.	.	16a/JJyy	.	16ee\JJyy	.	.	.	.
8C#/yy	16cc#\LLyy	16aa\LLyy	.	.	.	.	8a/Lyy	.	8ee\Lyy	.	.	.	.
.	16cc#\yy	16aa\yy	.	.	.	.	.	.	.	.	.	.	.
8D/Jyy	16cc#\yy	16aa\yy	.	.	.	.	8a/Jyy	.	8ee\Jyy	.	.	.	.
.	16cc#\JJyy	16aa\JJyy	.	.	.	.	.	.	.	.	.	.	.
=44	=44	=44	=44	=44	=44	=44	=44	=44	=44	=44	=44	=44	=44
!	!	!	!	!LO:MO:null:mod=-cem	!	!	!	!	!	!	!	!	!
8E\Lyy	8b\Lyy	8gg#X\Lyy	4G#X/yy	.	4b\	-cem	4ee\yy	.	4ee\yy	2ryy	2ryy	2ryy	2ryy
8E\yy	8g#X\yy	8ee\yy	.	.	.	.	.	.	.	.	.	.	.
!	!	!	!	!LO:MO:null:mod=da	!	!	!	!	!	!	!	!	!
8G#X\yy	8b\yy	8gg#\yy	4G#/yy	.	4b\	da	4ryy	.	4ryy	.	.	.	.
8E\Jyy	8g#\Jyy	8ee\Jyy	.	.	.	.	.	.	.	.	.	.	.
!	!	!	!LO:LB:g=original	!	!	!	!LO:LB:g=original	!	!	!	!	!	!
=45	=45	=45	=45	=45	=45	=45	=45	=45	=45	=45	=45	=45	=45
!	!	!	!	!LO:MO:null:mod=pa-	!	!	!	!	!	!	!	!	!
8AA/Lyy	16cc#\LLyy	16aa\LLyy	2A\yy	.	2cc#\	pa-	8a/Lyy	.	8ee\Lyy	2ryy	2ryy	2ryy	2ryy
.	16cc#\yy	16aa\yy	.	.	.	.	.	.	.	.	.	.	.
8BB/yy	16cc#\yy	16aa\yy	.	.	.	.	16a/Lyy	.	16ee\Lyy	.	.	.	.
.	16cc#\JJyy	16aa\JJyy	.	.	.	.	16a/JJyy	.	16ee\JJyy	.	.	.	.
8C#/yy	16cc#\LLyy	16aa\LLyy	.	.	.	.	8a/Lyy	.	8ee\Lyy	.	.	.	.
.	16cc#\yy	16aa\yy	.	.	.	.	.	.	.	.	.	.	.
8D/Jyy	16cc#\yy	16aa\yy	.	.	.	.	8a/Jyy	.	8ee\Jyy	.	.	.	.
.	16cc#\JJyy	16aa\JJyy	.	.	.	.	.	.	.	.	.	.	.
=46	=46	=46	=46	=46	=46	=46	=46	=46	=46	=46	=46	=46	=46
!	!	!	!	!LO:MO:null:mod=-cem	!	!	!	!	!	!	!	!	!
4E\yy	4b\yy	4gg#X\yy	4G#X/yy	.	4b\	-cem	4ee\yy	.	4ee\yy	2ryy	2ryy	2ryy	2ryy
!	!	!	!	!LO:MO:null:mod=da	!	!	!	!	!	!	!	!	!
8E\Lyy	16dd\LLyy	16gg#\LLyy	4B\yy	.	4dd\	da	4ryy	.	4ryy	.	.	.	.
.	16dd\yy	16gg#\yy	.	.	.	.	.	.	.	.	.	.	.
8F#\Jyy	16dd\yy	16gg#\yy	.	.	.	.	.	.	.	.	.	.	.
.	16dd\JJyy	16gg#\JJyy	.	.	.	.	.	.	.	.	.	.	.
=47	=47	=47	=47	=47	=47	=47	=47	=47	=47	=47	=47	=47	=47
!	!	!LO:SIC:v:s=16gg#\LL	!	!LO:MO:null:mod=pa-	!	!	!	!	!	!	!	!	!
8G#X\Lyy	16dd\LLyy	16gg\LLyy	2B\yy	.	2dd\	pa-	8ee\Lyy	.	8ee\Lyy	2ryy	2ryy	2ryy	2ryy
!	!	!LO:SIC:v:s=16gg#\	!	!	!	!	!	!	!	!	!	!	!
.	16dd\yy	16gg\yy	.	.	.	.	.	.	.	.	.	.	.
!	!	!LO:SIC:v:s=16gg#\	!	!	!	!	!	!	!	!	!	!	!
8A\yy	16dd\yy	16gg\yy	.	.	.	.	16ee\Lyy	.	16ee\Lyy	.	.	.	.
!	!	!LO:SIC:v:s=16gg#\JJ	!	!	!	!	!	!	!	!	!	!	!
.	16dd\JJyy	16gg\JJyy	.	.	.	.	16ee\JJyy	.	16ee\JJyy	.	.	.	.
!	!	!LO:SIC:v:s=16gg#\LL	!	!	!	!	!	!	!	!	!	!	!
8B\yy	16dd\LLyy	16gg\LLyy	.	.	.	.	8ee\Lyy	.	8ee\Lyy	.	.	.	.
!	!	!LO:SIC:v:s=16gg#\	!	!	!	!	!	!	!	!	!	!	!
.	16dd\yy	16gg\yy	.	.	.	.	.	.	.	.	.	.	.
!	!	!LO:SIC:v:s=16gg#\	!	!	!	!	!	!	!	!	!	!	!
8E\Jyy	16dd\yy	16gg\yy	.	.	.	.	8ee\Jyy	.	8ee\Jyy	.	.	.	.
!	!	!LO:SIC:v:s=16gg#\JJ	!	!	!	!	!	!	!	!	!	!	!
.	16dd\JJyy	16gg\JJyy	.	.	.	.	.	.	.	.	.	.	.
=48	=48	=48	=48	=48	=48	=48	=48	=48	=48	=48	=48	=48	=48
!	!	!LO:TX:t=P:problem=mixed beam	!	!LO:MO:null:mod=-cem	!	!	!	!	!	!	!	!	!
4A\yy	4cc#\yy	8aa\Lyy	4A\yy	.	4cc#\	-cem	4a/yy	.	4ee\yy	2ryy	2ryy	2ryy	2ryy
.	.	8a/Jyy	.	.	.	.	.	.	.	.	.	.	.
!	!	!LO:TX:t=P:problem=mixed beam	!	!LO:MO:null:mod=da	!	!	!	!	!	!	!	!	!
4A\yy	4cc#\yy	16ee\LLyy	4A\yy	.	4cc#\	da	4ryy	.	4ryy	.	.	.	.
.	.	16e/yy	.	.	.	.	.	.	.	.	.	.	.
.	.	16ee\yy	.	.	.	.	.	.	.	.	.	.	.
.	.	16e/JJyy	.	.	.	.	.	.	.	.	.	.	.
=49	=49	=49	=49	=49	=49	=49	=49	=49	=49	=49	=49	=49	=49
!	!	!LO:TX:t=P:problem=mixed beam	!	!LO:MO:null:mod=pa-	!	!	!LO:N:vis=00	!	!LO:N:vis=00	!	!	!	!
8G#X\Lyy	16b\LLyy	16ee\LLyy	8G#X\Lyy	.	8b\L	pa-	0ryy	.	0ryy	2ryy	2ryy	2ryy	2ryy
.	16b\yy	16e/yy	.	.	.	.	.	.	.	.	.	.	.
!	!	!	!	!	!LO:SIC:s=8a	!	!	!	!	!	!	!	!
8F#\yy	16a\yy	16ee\yy	8A\yy	.	8a\J	.	.	.	.	.	.	.	.
.	16a\JJyy	16e/JJyy	.	.	.	.	.	.	.	.	.	.	.
!	!	!LO:TX:t=P:problem=mixed beam	!	!	!LO:SIC:s=8g#	!	!	!	!	!	!	!	!
8E\yy	16g#X/LLyy	16ee\LLyy	8B\yy	.	8g#X/L	.	.	.	.	.	.	.	.
.	16g#/yy	16e/yy	.	.	.	.	.	.	.	.	.	.	.
8D#X\Jyy	16f#/yy	16ee\yy	8A\Jyy	.	8f#/J	.	.	.	.	.	.	.	.
.	16f#/JJyy	16e/JJyy	.	.	.	.	.	.	.	.	.	.	.
!	!	!	!	!	!LO:LB:g=original	!	!	!	!	!	!	!	!
=50	=50	=50	=50	=50	=50	=50	=50	=50	=50	=50	=50	=50	=50
!	!LO:SIC:v:s=16g#/LL	!LO:TX:t=P:problem=mixed beam	!	!	!LO:SIC:v:s=8g#\L	!	!	!	!	!	!	!	!
8E\Lyy	16g/LLyy	16ee\LLyy	8G#X/Lyy	.	8g\L	.	.	.	.	2ryy	2ryy	2ryy	2ryy
!	!LO:SIC:v:s=16g#/	!	!	!	!	!	!	!	!	!	!	!	!
.	16g/yy	16e/yy	.	.	.	.	.	.	.	.	.	.	.
8F#\yy	16a/yy	16ee\yy	8F#/Jyy	.	8a\J	.	.	.	.	.	.	.	.
.	16a/JJyy	16e/JJyy	.	.	.	.	.	.	.	.	.	.	.
!	!	!LO:TX:t=P:problem=mixed beam	!	!LO:MO:null:mod=-cem	!	!	!	!	!	!	!	!	!
8G#X\yy	16b\LLyy	16ee\LLyy	8E/yy	.	8b\L	-cem	.	.	.	.	.	.	.
.	16b\yy	16e/yy	.	.	.	.	.	.	.	.	.	.	.
!	!	!	!	!LO:MO:null:mod=da	!	!	!	!	!	!	!	!	!
8A\Jyy	16cc#\yy	16ee\yy	8A\yy	.	8cc#\J	.	.	.	.	.	.	.	.
.	16cc#\JJyy	16e/JJyy	.	.	.	.	.	.	.	.	.	.	.
=51	=51	=51	=51	=51	=51	=51	=51	=51	=51	=51	=51	=51	=51
!	!	!LO:TX:t=P:problem=mixed beam	!	!LO:MO:null:mod=pa-	!	!	!	!	!	!	!	!	!
8G#X\Lyy	16b\LLyy	16ee\LLyy	8G#X\Lyy	.	8b\L	da	.	.	.	2ryy	2ryy	2ryy	2ryy
.	16b\yy	16e/yy	.	.	.	.	.	.	.	.	.	.	.
!	!	!	!	!	!	!LO:MO:mod=.	!	!	!	!	!	!	!
8F#\yy	16a\yy	16ee\yy	8A\yy	.	8a\J	pa-	.	.	.	.	.	.	.
.	16a\JJyy	16e/JJyy	.	.	.	.	.	.	.	.	.	.	.
!	!	!LO:TX:t=P:problem=mixed beam	!	!	!	!LO:MO:null:mod=pa-	!	!	!	!	!	!	!
8E\yy	16g#X/LLyy	16ee\LLyy	8B\yy	.	8g#X\L	.	.	.	.	.	.	.	.
.	16g#/yy	16e/yy	.	.	.	.	.	.	.	.	.	.	.
8D#X\Jyy	16f#/yy	16ee\yy	8A\Jyy	.	8f#\J	.	.	.	.	.	.	.	.
.	16f#/JJyy	16e/JJyy	.	.	.	.	.	.	.	.	.	.	.
=52	=52	=52	=52	=52	=52	=52	=52	=52	=52	=52	=52	=52	=52
!	!LO:SIC:v:s=8g#/L	!LO:TX:t=P:problem=mixed beam	!	!	!LO:SIC:v:s=4g#\	!	!	!	!	!	!	!	!
8E\Lyy	8g/Lyy	8ee\Lyy	8G#X/Lyy	.	4g\	-cem	.	.	.	2ryy	2ryy	2ryy	2ryy
!	!LO:SIC:v:s=8g#/J	!	!	!	!	!	!	!	!	!	!	!	!
8E\yy	8g/Jyy	8e/Jyy	8F#/Jyy	.	.	.	.	.	.	.	.	.	.
!	!LO:SIC:v:s=8g#/L	!LO:TX:t=P:problem=mixed beam	!	!LO:MO:null:mod=-cem	!	!	!	!	!	!	!	!	!
8E\yy	8g/Lyy	16dd\LLyy	8E/yy	.	4dd\	da	.	.	.	.	.	.	.
.	.	16d/yy	.	.	.	.	.	.	.	.	.	.	.
!	!	!	!	!LO:MO:null:mod=da	!	!	!	!	!	!	!	!	!
8Gn\Jyy	16b/Lyy	16dd\yy	8B\yy	.	.	.	.	.	.	.	.	.	.
.	16b/JJyy	16d/JJyy	.	.	.	.	.	.	.	.	.	.	.
!	!LO:LB:g=original	!	!	!	!	!	!	!	!	!	!	!	!
=53	=53	=53	=53	=53	=53	=53	=53	=53	=53	=53	=53	=53	=53
!	!	!LO:TX:t=P:problem=mixed beam	!	!LO:MO:null:mod=pa-	!	!	!LO:N:vis=0	!	!LO:N:vis=0	!	!	!	!
8F#\Lyy	16a/LLyy	16dd\LLyy	8A\Lyy	.	2dd\	pa-	1ryy	.	1ryy	2ryy	2ryy	2ryy	2ryy
.	16a/yy	16d/yy	.	.	.	.	.	.	.	.	.	.	.
!	!	!	!LO:SIC:s=8Gn	!	!	!	!	!	!	!	!	!	!
8E\yy	16gn/yy	16dd\yy	8G\yy	.	.	.	.	.	.	.	.	.	.
.	16g/JJyy	16d/JJyy	.	.	.	.	.	.	.	.	.	.	.
!	!	!LO:TX:t=P:problem=mixed beam	!	!	!	!	!	!	!	!	!	!	!
8D\yy	16f#/LLyy	16dd\LLyy	8F#\yy	.	.	.	.	.	.	.	.	.	.
.	16f#/yy	16d/yy	.	.	.	.	.	.	.	.	.	.	.
8C#\Jyy	16e/yy	16dd\yy	8E\Jyy	.	.	.	.	.	.	.	.	.	.
.	16e/JJyy	16d/JJyy	.	.	.	.	.	.	.	.	.	.	.
!	!	!LO:LB:g=original	!	!	!	!	!	!	!	!	!	!	!
=54	=54	=54	=54	=54	=54	=54	=54	=54	=54	=54	=54	=54	=54
!	!	!LO:TX:t=P:problem=mixed beam	!	!	!	!	!	!	!	!	!	!	!
8D\Lyy	16f#/LLyy	16dd\LLyy	8F#/Lyy	.	4dd\	-cem	.	.	.	2ryy	2ryy	2ryy	2ryy
.	16f#/yy	16d/yy	.	.	.	.	.	.	.	.	.	.	.
8E\yy	16g/yy	16dd\yy	8G/Jyy	.	.	.	.	.	.	.	.	.	.
.	16g/JJyy	16d/JJyy	.	.	.	.	.	.	.	.	.	.	.
!	!	!LO:TX:t=P:problem=mixed beam	!	!LO:MO:null:mod=-cem	!	!	!	!	!	!	!	!	!
8F#\yy	16a/LLyy	16dd\LLyy	8A\yy	.	4dd\	da	.	.	.	.	.	.	.
.	16a/yy	16d/yy	.	.	.	.	.	.	.	.	.	.	.
!	!	!	!	!LO:MO:null:mod=da	!	!	!	!	!	!	!	!	!
8G\Jyy	16b/yy	16dd\yy	8B\yy	.	.	.	.	.	.	.	.	.	.
.	16b/JJyy	16d/JJyy	.	.	.	.	.	.	.	.	.	.	.
=55	=55	=55	=55	=55	=55	=55	=55	=55	=55	=55	=55	=55	=55
!	!	!LO:TX:t=P:problem=takt nr 55 zapisany repetycją	!	!	!	!	!	!	!	!	!	!	!
!	!	!LO:TX:t=P:problem=mixed beam	!	!LO:MO:null:mod=pa-	!	!	!	!	!	!	!	!	!
8F#\Lyy	16a/LLyy	16dd\LLyy	8A\Lyy	.	2dd\	pa-	2ryy	.	2ryy	2ryy	2ryy	2ryy	2ryy
.	16a/yy	16d/yy	.	.	.	.	.	.	.	.	.	.	.
8E\yy	16g/yy	16dd\yy	8G\yy	.	.	.	.	.	.	.	.	.	.
.	16g/JJyy	16d/JJyy	.	.	.	.	.	.	.	.	.	.	.
!	!	!LO:TX:t=P:problem=mixed beam	!	!	!	!	!	!	!	!	!	!	!
8D\yy	16f#/LLyy	16dd\LLyy	8F#\yy	.	.	.	.	.	.	.	.	.	.
.	16f#/yy	16d/yy	.	.	.	.	.	.	.	.	.	.	.
8C#\Jyy	16e/yy	16dd\yy	8E\Jyy	.	.	.	.	.	.	.	.	.	.
.	16e/JJyy	16d/JJyy	.	.	.	.	.	.	.	.	.	.	.
=56	=56	=56	=56	=56	=56	=56	=56	=56	=56	=56	=56	=56	=56
!	!LO:TX:t=P:problem=mixed beam	!	!	!LO:MO:null:mod=-cem	!	!	!	!	!	!	!	!	!
8D\Lyy	16f#/LLyy	16dd\LLyy	4F#/yy	.	4dd\	-cem	8ryy	.	8ryy	2ryy	2ryy	2ryy	2ryy
.	16dd\yy	16ff#\yy	.	.	.	.	.	.	.	.	.	.	.
8E\yy	16dd\yy	16ff#\yy	.	.	.	.	8dd\Lyy	.	8ff#\Lyy	.	.	.	.
.	16dd\JJyy	16ff#\JJyy	.	.	.	.	.	.	.	.	.	.	.
!	!	!	!	!LO:MO:null:mod=da	!	!	!	!	!	!	!	!	!
8F#\yy	16dd\LLyy	16ff#\LLyy	4d\yy	.	4ff#\	da	8dd\yy	.	8ff#\yy	.	.	.	.
.	16dd\yy	16ff#\yy	.	.	.	.	.	.	.	.	.	.	.
8G\Jyy	16dd\yy	16ff#\yy	.	.	.	.	8dd\Jyy	.	8ff#\Jyy	.	.	.	.
.	16dd\JJyy	16ff#\JJyy	.	.	.	.	.	.	.	.	.	.	.
=57	=57	=57	=57	=57	=57	=57	=57	=57	=57	=57	=57	=57	=57
!	!	!	!	!LO:MO:null:mod=pa-	!	!	!	!	!	!	!	!	!
8A\Lyy	16cc#\LLyy	16ee\LLyy	4c#\yy	.	4ee\	pa-	4a/yy	.	4ee\yy	2ryy	2ryy	2ryy	2ryy
.	16cc#\yy	16ee\yy	.	.	.	.	.	.	.	.	.	.	.
8G\yy	16cc#\yy	16ee\yy	.	.	.	.	.	.	.	.	.	.	.
.	16cc#\JJyy	16ee\JJyy	.	.	.	.	.	.	.	.	.	.	.
!	!	!	!	!LO:MO:null:mod=-cem	!	!	!	!	!	!	!	!	!
8F#\yy	16dd\LLyy	16ff#\LLyy	8d\yy	.	8ff#\	-cem	4dd\yy	.	4ff#\yy	.	.	.	.
.	16dd\yy	16ff#\yy	.	.	.	.	.	.	.	.	.	.	.
!	!	!	!	!LO:MO:null:mod=da	!	!	!	!	!	!	!	!	!
8G\Jyy	16dd\yy	16ff#\yy	8d\yy	.	8ff#\	da	.	.	.	.	.	.	.
.	16dd\JJyy	16ff#\JJyy	.	.	.	.	.	.	.	.	.	.	.
!	!	!	!LO:LB:g=original	!	!	!	!	!	!	!	!	!	!
=58	=58	=58	=58	=58	=58	=58	=58	=58	=58	=58	=58	=58	=58
!	!	!	!	!LO:MO:null:mod=pa-	!	!	!	!	!	!	!	!	!
4A\yy	4cc#\yy	4ee\yy	2c#\yy	.	2ee\	pa-	4a/yy	.	4ee\yy	2ryy	2ryy	2ryy	2ryy
4AA/yy	4cc#\yy	4ee\yy	.	.	.	.	4a/yy	.	4ee\yy	.	.	.	.
!	!	!	!	!	!	!	!	!	!LO:LB:g=original	!	!	!	!
=59	=59	=59	=59	=59	=59	=59	=59	=59	=59	=59	=59	=59	=59
!LO:TX:t=P:problem=mixed beam	!	!	!	!LO:MO:null:mod=-cem	!	!	!	!	!	!	!	!	!
8D/Lyy	4dd\yy	4ff#\yy	8d\yy	.	4ff#\	-cem	4dd\yy	.	4ff#\yy	2ryy	2ryy	2ryy	2ryy
!	!	!	!	!LO:MO:null:mod=da	!	!	!	!	!	!	!	!	!
16d\Lyy	.	.	16f#\LLyy	.	.	.	.	.	.	.	.	.	.
16c#\JJyy	.	.	16e\JJyy	.	.	.	.	.	.	.	.	.	.
!	!	!	!	!LO:MO:null:mod=pa-	!	!	!	!	!	!	!	!	!
8B\Lyy	4ryy	4ryy	8d\Lyy	.	4dd\	da	4ryy	.	4ryy	.	.	.	.
8A\Jyy	.	.	8c#\Jyy	.	.	.	.	.	.	.	.	.	.
!	!	!	!	!	!LO:LB:g=original	!	!	!	!	!	!	!	!
=60	=60	=60	=60	=60	=60	=60	=60	=60	=60	=60	=60	=60	=60
8G\Lyy	8ryy	8ryy	8B\Lyy	.	2dd\	pa-	4dd\yy	.	4ff#\yy	2ryy	2ryy	2ryy	2ryy
16B\Lyy	16ddd\LLyy	16ddd\LLyy	16d\Lyy	.	.	.	.	.	.	.	.	.	.
16A\JJyy	16ccc#\JJyy	16ccc#\JJyy	16c#\JJyy	.	.	.	.	.	.	.	.	.	.
8G\Lyy	8bb\Lyy	8bb\Lyy	8B\Lyy	.	.	.	4ryy	.	4ryy	.	.	.	.
8F#\Jyy	8aa\Jyy	8aa\Jyy	8A\Jyy	.	.	.	.	.	.	.	.	.	.
!LO:LB:g=original	!	!	!	!	!	!	!	!	!	!	!	!	!
=61	=61	=61	=61	=61	=61	=61	=61	=61	=61	=61	=61	=61	=61
8E\Lyy	8gg\Lyy	8gg\Lyy	8G\Lyy	.	2dd\	.	4dd\yy	.	4ff#\yy	2ryy	2ryy	2ryy	2ryy
16G\Lyy	16bb\Lyy	16bb\Lyy	16B\Lyy	.	.	.	.	.	.	.	.	.	.
16F#\JJyy	16aa\JJyy	16aa\JJyy	16A\JJyy	.	.	.	.	.	.	.	.	.	.
8E\Lyy	8gg\Lyy	8gg\Lyy	8G/Lyy	.	.	.	4ryy	.	4ryy	.	.	.	.
8D\Jyy	8ff#\Jyy	8ff#\Jyy	8F#/Jyy	.	.	.	.	.	.	.	.	.	.
=62	=62	=62	=62	=62	=62	=62	=62	=62	=62	=62	=62	=62	=62
!	!	!	!	!LO:MO:null:mod=-cem	!	!	!	!	!	!	!	!	!
4A\yy	4eeyy 4cc#yy 4a/yy	4eeyy 4cc#yy 4a/yy	4c#\yy	.	4ee\	-cem	4a/yy	.	4ee\yy	2ryy	2ryy	2ryy	2ryy
!	!	!	!	!LO:MO:null:mod=da	!	!	!	!	!	!	!	!	!
8F#\Lyy	4ff#yy 4ayy 4d/yy	4ff#yy 4ayy 4d/yy	4d\yy	.	4ff#\	da	4dd\yy	.	4ff#\yy	.	.	.	.
8G\Jyy	.	.	.	.	.	.	.	.	.	.	.	.	.
=63	=63	=63	=63	=63	=63	=63	=63	=63	=63	=63	=63	=63	=63
!	!	!	!	!LO:MO:null:mod=pa-	!	!	!	!	!	!	!	!	!
4A\yy	4eeyy 4cc#yy 4a/yy	4eeyy 4cc#yy 4a/yy	2c#\yy	.	2ee\	pa-	4a/yy	.	4ee\yy	2ryy	2ryy	2ryy	2ryy
4AA/yy	4eeyy 4cc#yy 4a/yy	4eeyy 4cc#yy 4a/yy	.	.	.	.	4a/yy	.	4ee\yy	.	.	.	.
=64	=64	=64	=64	=64	=64	=64	=64	=64	=64	=64	=64	=64	=64
!	!	!	!	!LO:MO:null:mod=-cem	!	!	!	!	!	!	!	!	!
4D/yy	4ff#yy 4ayy 4d/yy	4ff#yy 4ayy 4d/yy	4d\yy	.	4dd\	-cem	4dd\yy	.	4ff#\yy	2ryy	2ryy	2ryy	2ryy
!	!	!	!	!LO:MO:null:mod=da	!	!	!	!	!	!	!	!	!
4d\yy	4a/yy	4ff#\yy	4d\yy	.	4ff#\	da	4dd\yy	.	4ff#\yy	.	.	.	.
!	!LO:LB:g=original	!	!	!	!	!	!	!	!	!	!	!	!
=65	=65	=65	=65	=65	=65	=65	=65	=65	=65	=65	=65	=65	=65
!	!	!	!	!LO:MO:null:mod=pa-	!LO:N:vis=4	!	!	!	!	!	!	!	!
8D\Lyy	16dd\LLyy	16ff#\LLyy	2d\yy	.	2ff#\	pa-	8dd\Lyy	.	8ff#\Lyy	2ryy	2ryy	2ryy	2ryy
.	16cc#\yy	16ee\yy	.	.	.	.	.	.	.	.	.	.	.
8E\yy	16dd\yy	16ff#\yy	.	.	.	.	16dd\Lyy	.	16ff#\Lyy	.	.	.	.
.	16ff#\JJyy	16ddd\JJyy	.	.	.	.	16dd\JJyy	.	16ff#\JJyy	.	.	.	.
8F#\yy	16dd\LLyy	16ff#\LLyy	.	.	.	.	8dd\Lyy	.	8ff#\Lyy	.	.	.	.
.	16cc#\yy	16ee\yy	.	.	.	.	.	.	.	.	.	.	.
8G\Jyy	16dd\yy	16ff#\yy	.	.	.	.	8dd\Jyy	.	8ff#\Jyy	.	.	.	.
.	16ff#\JJyy	16ddd\JJyy	.	.	.	.	.	.	.	.	.	.	.
=66	=66	=66	=66	=66	=66	=66	=66	=66	=66	=66	=66	=66	=66
!	!	!	!	!LO:MO:null:mod=-cem	!	!	!	!	!	!	!	!	!
4A\yy	4cc#\yy	4ee\yy	4c#\yy	.	4ee\	-cem	4a/yy	.	4ee\yy	2ryy	2ryy	2ryy	2ryy
!	!	!	!	!LO:MO:null:mod=da	!	!	!	!	!	!	!	!	!
4AA/yy	4cc#\yy	4ee\yy	4c#\yy	.	4ee\	da	4a/yy	.	4ee\yy	.	.	.	.
=67	=67	=67	=67	=67	=67	=67	=67	=67	=67	=67	=67	=67	=67
!	!	!	!	!LO:MO:null:mod=pa-	!LO:N:vis=4	!	!	!	!	!	!	!	!
8D\Lyy	16dd\LLyy	16ff#\LLyy	2d\yy	.	2ff#\	pa-	8dd\Lyy	.	8ff#\Lyy	2ryy	2ryy	2ryy	2ryy
.	16cc#\yy	16ee\yy	.	.	.	.	.	.	.	.	.	.	.
8E\yy	16dd\yy	16ff#\yy	.	.	.	.	16dd\Lyy	.	16ff#\Lyy	.	.	.	.
.	16ff#\JJyy	16ddd\JJyy	.	.	.	.	16dd\JJyy	.	16ff#\JJyy	.	.	.	.
8F#\yy	16dd\LLyy	16ff#\LLyy	.	.	.	.	8dd\Lyy	.	8ff#\Lyy	.	.	.	.
.	16cc#\yy	16ee\yy	.	.	.	.	.	.	.	.	.	.	.
8G\Jyy	16dd\yy	16ff#\yy	.	.	.	.	8dd\Jyy	.	8ff#\Jyy	.	.	.	.
.	16ff#\JJyy	16ddd\JJyy	.	.	.	.	.	.	.	.	.	.	.
=68	=68	=68	=68	=68	=68	=68	=68	=68	=68	=68	=68	=68	=68
!	!	!	!	!LO:MO:null:mod=-cem	!	!	!	!	!	!	!	!	!
4A\yy	4cc#\yy	8ee\Lyy	4c#\yy	.	4ee\	-cem	4a/yy	.	4ee\yy	2ryy	2ryy	2ryy	2ryy
.	.	8a\Jyy	.	.	.	.	.	.	.	.	.	.	.
!	!	!	!	!LO:MO:null:mod=da	!	!	!	!	!	!	!	!	!
8A\Lyy	16ee\LLyy	16aa\LLyy	4c#\yy	.	4ee\	da	8a/Lyy	.	8ee\Lyy	.	.	.	.
.	16ee\yy	16aa\yy	.	.	.	.	.	.	.	.	.	.	.
8G#X\Jyy	16ee\yy	16aa\yy	.	.	.	.	8a/Jyy	.	8ee\Jyy	.	.	.	.
.	16ee\JJyy	16aa\JJyy	.	.	.	.	.	.	.	.	.	.	.
!	!	!LO:LB:g=original	!	!	!	!	!LO:LB:g=original	!	!	!	!	!	!
=69	=69	=69	=69	=69	=69	=69	=69	=69	=69	=69	=69	=69	=69
!	!	!	!	!LO:MO:null:mod=pa-	!	!	!	!	!	!	!	!	!
8A\Lyy	16ee\LLyy	16aa\LLyy	4c#\yy	.	4ee\	pa-	4a/yy	.	4ee\yy	2ryy	2ryy	2ryy	2ryy
.	16ee\yy	16aa\yy	.	.	.	.	.	.	.	.	.	.	.
8B\yy	16ee\yy	16aa\yy	.	.	.	.	.	.	.	.	.	.	.
.	16ee\JJyy	16aa\JJyy	.	.	.	.	.	.	.	.	.	.	.
!	!	!	!	!LO:MO:null:mod=-cem	!	!	!	!	!	!	!	!	!
8c#\yy	16ee\LLyy	16aa\LLyy	8c#\yy	.	8ee\	-cem	8a/Lyy	.	8ee\Lyy	.	.	.	.
.	16ee\yy	16aa\yy	.	.	.	.	.	.	.	.	.	.	.
!	!	!	!	!LO:MO:null:mod=da	!	!	!	!	!	!	!	!	!
8d\Jyy	16ee\yy	16aa\yy	8c#\yy	.	8ee\	da	8a/Jyy	.	8ee\Jyy	.	.	.	.
.	16ee\JJyy	16aa\JJyy	.	.	.	.	.	.	.	.	.	.	.
=70	=70	=70	=70	=70	=70	=70	=70	=70	=70	=70	=70	=70	=70
!	!	!	!	!LO:MO:null:mod=pa-	!	!	!	!	!	!	!	!	!
8e\Lyy	16gg\LLyy	16ccc#\LLyy	2e\yy	.	2gg\	pa-	8a/Lyy	.	8ee\Lyy	2ryy	2ryy	2ryy	2ryy
.	16gg\yy	16ccc#\yy	.	.	.	.	.	.	.	.	.	.	.
8d\yy	16gg\yy	16ccc#\yy	.	.	.	.	16a/Lyy	.	16ee\Lyy	.	.	.	.
.	16gg\JJyy	16ccc#\JJyy	.	.	.	.	16a/JJyy	.	16ee\JJyy	.	.	.	.
8c#\yy	16gg\LLyy	16ccc#\LLyy	.	.	.	.	8a/Lyy	.	8ee\Lyy	.	.	.	.
.	16gg\yy	16ccc#\yy	.	.	.	.	.	.	.	.	.	.	.
8A\Jyy	16gg\yy	16ccc#\yy	.	.	.	.	8a/Jyy	.	8ee\Jyy	.	.	.	.
.	16gg\JJyy	16ccc#\JJyy	.	.	.	.	.	.	.	.	.	.	.
!	!	!	!	!	!LO:LB:g=original	!	!	!	!	!	!	!	!
=71	=71	=71	=71	=71	=71	=71	=71	=71	=71	=71	=71	=71	=71
!	!	!	!	!LO:MO:null:mod=-cem	!	!	!	!	!	!	!	!	!
8d\Lyy	4ff#\yy	4ddd\yy	8d\yy	.	4ff#\	-cem	4dd\yy	.	4ff#\yy	2ryy	2ryy	2ryy	2ryy
!	!	!	!	!LO:MO:null:mod=da	!	!	!	!	!	!	!	!	!
16d\Lyy	.	.	16f#\LLyy	.	.	.	.	.	.	.	.	.	.
16c#\JJyy	.	.	16e\JJyy	.	.	.	.	.	.	.	.	.	.
!	!	!	!	!LO:MO:null:mod=pa-	!	!	!	!	!	!	!	!	!
8B\Lyy	4ryy	4ryy	8d\Lyy	.	4dd\	da	4ryy	.	4ryy	.	.	.	.
8A\Jyy	.	.	8c#\Jyy	.	.	.	.	.	.	.	.	.	.
!	!	!	!LO:LB:g=original	!	!	!	!	!	!	!	!	!	!
=72	=72	=72	=72	=72	=72	=72	=72	=72	=72	=72	=72	=72	=72
8G\Lyy	8ryy	8ryy	8B\Lyy	.	2dd\	pa-	4dd\yy	.	4ff#\yy	2ryy	2ryy	2ryy	2ryy
16B\Lyy	16ddd\LLyy	16ddd\LLyy	16d\Lyy	.	.	.	.	.	.	.	.	.	.
16A\JJyy	16ccc#\JJyy	16ccc#\JJyy	16c#\JJyy	.	.	.	.	.	.	.	.	.	.
8G\Lyy	8bb\Lyy	8bb\Lyy	8B\Lyy	.	.	.	4ryy	.	4ryy	.	.	.	.
8F#\Jyy	8aa\Jyy	8aa\Jyy	8A\Jyy	.	.	.	.	.	.	.	.	.	.
=73	=73	=73	=73	=73	=73	=73	=73	=73	=73	=73	=73	=73	=73
8E\Lyy	8gg\Lyy	8gg\Lyy	8G\Lyy	.	2dd\	.	4dd\yy	.	4ff#\yy	2ryy	2ryy	2ryy	2ryy
16G\Lyy	16bb\Lyy	16bb\Lyy	16B\Lyy	.	.	.	.	.	.	.	.	.	.
16F#\JJyy	16aa\JJyy	16aa\JJyy	16A\JJyy	.	.	.	.	.	.	.	.	.	.
8E\Lyy	8gg\Lyy	8gg\Lyy	8G/Lyy	.	.	.	4ryy	.	4ryy	.	.	.	.
8D\Jyy	8ff#\Jyy	8ff#\Jyy	8F#/Jyy	.	.	.	.	.	.	.	.	.	.
=74	=74	=74	=74	=74	=74	=74	=74	=74	=74	=74	=74	=74	=74
!	!	!	!	!LO:MO:null:mod=-cem	!	!	!	!	!	!	!	!	!
4A\yy	4eeyy 4cc#yy 4a/yy	4eeyy 4cc#yy 4a/yy	4c#\yy	.	4ee\	-cem	4a/yy	.	4ee\yy	2ryy	2ryy	2ryy	2ryy
!	!	!	!	!LO:MO:null:mod=da	!	!	!	!	!	!	!	!	!
8F#\Lyy	4ff#yy 4ayy 4d/yy	4ff#yy 4ayy 4d/yy	4d\yy	.	4ff#\	da	4dd\yy	.	4ff#\yy	.	.	.	.
8G\Jyy	.	.	.	.	.	.	.	.	.	.	.	.	.
=75	=75	=75	=75	=75	=75	=75	=75	=75	=75	=75	=75	=75	=75
!	!	!	!	!LO:MO:null:mod=pa-	!	!	!	!	!	!	!	!	!
4A\yy	4eeyy 4cc#yy 4a/yy	4eeyy 4cc#yy 4a/yy	4c#\yy	.	4ee\	pa-	4a/yy	.	4ee\yy	2ryy	2ryy	2ryy	2ryy
!	!	!	!	!LO:MO:null:mod=-cem.	!	!LO:SIC:s=-cem.	!	!	!	!	!	!	!
4AA/yy	4eeyy 4cc#yy 4a/yy	4eeyy 4cc#yy 4a/yy	4c#\yy	.	4ee\	-cem	4a/yy	.	4ee\yy	.	.	.	.
=76	=76	=76	=76	=76	=76	=76	=76	=76	=76	=76	=76	=76	=76
!	!	!	!LO:MO:mod=8d	!LO:MO:null:mod=Do-	!	!LO:SIC:s=Do-	!	!	!	!	!	!	!
4D\yy	4ff#yy 4ayy 4d/yy	4ff#yy 4ayy 4d/yy	4d\yy	.	8ff#\	do-	4dd\yy	.	4ff#\yy	2ryy	2ryy	2ryy	2ryy
!	!	!	!LO:MO:null:mod=8d@	!LO:MO:null:mod=-na	!	!	!	!	!	!	!	!	!
.	.	.	.	.	8ff#\	-na	.	.	.	.	.	.	.
!	!	!	!	!LO:MO:null:mod=no-	!	!	!	!	!	!	!	!	!
4D\yy	4ff#yy 4ayy 4d/yy	4ff#yy 4ayy 4d/yy	4d\yy	.	4ff#\	no-	4dd\yy	.	4ff#\yy	.	.	.	.
!	!	!	!	!	!	!	!	!	!LO:LB:g=original	!	!	!	!
=77	=77	=77	=77	=77	=77	=77	=77	=77	=77	=77	=77	=77	=77
!	!	!	!	!LO:MO:null:mod=-bis	!	!	!	!	!	!	!	!	!
4D\yy	4ff#yy 4ayy 4d/yy	4ff#yy 4ayy 4d/yy	4d\yy	.	4ff#\	-bis	4dd\yy	.	4ff#\yy	2ryy	2ryy	2ryy	2ryy
4ryy	8ryy	8ryy	4ryy	.	4r	.	4ryy	.	4ryy	.	.	.	.
.	8dd\yy	8dd\yy	.	.	.	.	.	.	.	.	.	.	.
!LO:LB:g=original	!LO:LB:g=original	!	!	!	!	!	!	!	!	!	!	!	!
=78	=78	=78	=78	=78	=78	=78	=78	=78	=78	=78	=78	=78	=78
!	!LO:SIC:s=(8ddL	!LO:SIC:s=(8ff#L	!LO:N:vis=0	!	!LO:N:vis=0	!	!	!	!	!	!	!	!
8D\Lyy	8dd\Lyy	8ff#\Lyy	1ryy	.	1r	.	8dd\Lyy	.	8dd\Lyy	2ryy	2ryy	2ryy	2ryy
!	!LO:SIC:s=8ff#)	!LO:SIC:s=8aa)	!	!	!	!	!	!	!	!	!	!	!
8D\yy	8ff#\yy	8aa\yy	.	.	.	.	8dd\yy	.	8dd\yy	.	.	.	.
!	!LO:SIC:s=(8ee	!LO:SIC:s=(8gg	!	!	!	!	!	!	!	!	!	!	!
8D\yy	8ee\yy	8gg\yy	.	.	.	.	8dd\yy	.	8dd\yy	.	.	.	.
!	!LO:SIC:s=8ggJ)	!LO:SIC:s=8bbJ)	!	!	!	!	!	!	!	!	!	!	!
8D\Jyy	8gg\Jyy	8bb\Jyy	.	.	.	.	8dd\Jyy	.	8dd\Jyy	.	.	.	.
=79	=79	=79	=79	=79	=79	=79	=79	=79	=79	=79	=79	=79	=79
8D\Lyy	8ff#\yy	8aa\yy	.	.	.	.	8dd\Lyy	.	8dd\Lyy	2ryy	2ryy	2ryy	2ryy
8D\yy	4ff#\yy	4ddd\yy	.	.	.	.	8dd\yy	.	8dd\yy	.	.	.	.
8D\yy	.	.	.	.	.	.	8dd\yy	.	8dd\yy	.	.	.	.
8D\Jyy	8dd\yy	8dd\yy	.	.	.	.	8dd\Jyy	.	8dd\Jyy	.	.	.	.
=80	=80	=80	=80	=80	=80	=80	=80	=80	=80	=80	=80	=80	=80
!	!LO:SIC:s=(8ddL	!	!	!	!	!	!	!	!	!	!	!	!
8D\Lyy	8dd\Lyy	(8ff#\Lyy	2ryy	.	2r	.	8dd\Lyy	.	8dd\Lyy	2ryy	2ryy	2ryy	2ryy
!	!LO:SIC:s=8ff#)	!	!	!	!	!	!	!	!	!	!	!	!
8D\yy	8ff#\yy	8aa\)yy	.	.	.	.	8dd\yy	.	8dd\yy	.	.	.	.
!	!LO:SIC:s=(8ee	!	!	!	!	!	!	!	!	!	!	!	!
8D\yy	8ee\yy	(8gg\yy	.	.	.	.	8dd\yy	.	8dd\yy	.	.	.	.
!	!LO:SIC:s=8ggJ)	!	!	!	!	!	!	!	!	!	!	!	!
8D\Jyy	8gg\Jyy	8bb\J)yy	.	.	.	.	8dd\Jyy	.	8dd\Jyy	.	.	.	.
=81	=81	=81	=81	=81	=81	=81	=81	=81	=81	=81	=81	=81	=81
8D\Lyy	8ff#\yy	8aa\yy	4ryy	.	4r	.	8dd\Lyy	.	8dd\Lyy	2ryy	2ryy	2ryy	2ryy
8D\yy	4ff#\yy	4ddd\yy	.	.	.	.	8dd\yy	.	8dd\yy	.	.	.	.
8D\yy	.	.	8ryy	.	8r	.	8dd\yy	.	8dd\yy	.	.	.	.
!	!	!	!LO:SIC:s=(8d	!LO:MO:null:mod=pa-	!LO:SIC:s=(8ff#	!	!	!	!	!	!	!	!
8F#\Jyy	8ff#\yy	8aa\yy	8d\yy	.	8ff#\	pa-	8dd\Jyy	.	8ff#\Jyy	.	.	.	.
=82	=82	=82	=82	=82	=82	=82	=82	=82	=82	=82	=82	=82	=82
!	!	!	!LO:SIC:s=4e	!	!	!	!	!	!	!	!	!	!
4G\yy	4ee\yy	4gg\yy	(4e\yy	.	4gg\	.	4ee\yy	.	4gg\yy	2ryy	2ryy	2ryy	2ryy
!	!	!	!	!	!LO:SIC:s=4ee)	!	!	!	!	!	!	!	!
4A\yy	4cc#\yy	4ee\yy	4c#\)yy	.	4ee\	.	4a/yy	.	4ee\yy	.	.	.	.
!	!	!LO:LB:g=original	!	!	!LO:PB:g=original	!	!	!	!	!	!	!	!
=83	=83	=83	=83	=83	=83	=83	=83	=83	=83	=83	=83	=83	=83
!LO:TX:t=P:problem=mixed beam	!	!LO:TX:t=P:problem=mixed beam	!	!LO:MO:null:mod=-cem	!	!	!	!	!	!	!	!	!
8D/Lyy	8dd\Lyy	16dd\LLyy	8d\Lyy	.	4ff#\	-cem	4dd\yy	.	4ff#\yy	2ryy	2ryy	2ryy	2ryy
.	.	16d/yy	.	.	.	.	.	.	.	.	.	.	.
8d\yy	16ff#\Lyy	16dd\yy	8f#\Jyy	.	.	.	.	.	.	.	.	.	.
.	16ff#\JJyy	16d/JJyy	.	.	.	.	.	.	.	.	.	.	.
!	!	!LO:TX:t=P:problem=mixed beam	!	!LO:MO:null:mod=da	!	!	!	!	!	!	!	!	!
8c#\yy	16dd\LLyy	16dd\LLyy	8d\Lyy	.	4dd\	da	4ryy	.	4ryy	.	.	.	.
.	16dd\yy	16d/yy	.	.	.	.	.	.	.	.	.	.	.
8B\Jyy	16cc#\yy	16dd\yy	8c#\Jyy	.	.	.	.	.	.	.	.	.	.
.	16cc#\JJyy	16d/JJyy	.	.	.	.	.	.	.	.	.	.	.
=84	=84	=84	=84	=84	=84	=84	=84	=84	=84	=84	=84	=84	=84
!	!	!LO:TX:t=P:problem=mixed beam	!	!LO:MO:null:mod=pa-	!	!	!	!	!	!	!	!	!
8G\Lyy	16b\LLyy	16dd\LLyy	8B\Lyy	.	2dd\	pa-	4dd\yy	.	4ff#\yy	2ryy	2ryy	2ryy	2ryy
.	16b\yy	16d/yy	.	.	.	.	.	.	.	.	.	.	.
8B\yy	16dd\yy	16dd\yy	8d\yy	.	.	.	.	.	.	.	.	.	.
.	16dd\JJyy	16d/JJyy	.	.	.	.	.	.	.	.	.	.	.
!	!	!LO:TX:t=P:problem=mixed beam	!	!	!	!	!	!	!	!	!	!	!
8A\yy	16b\LLyy	16dd\LLyy	8B\yy	.	.	.	4ryy	.	4ryy	.	.	.	.
.	16b\yy	16d/yy	.	.	.	.	.	.	.	.	.	.	.
8G\Jyy	16a\yy	16dd\yy	8A\Jyy	.	.	.	.	.	.	.	.	.	.
.	16a\JJyy	16d/JJyy	.	.	.	.	.	.	.	.	.	.	.
=85	=85	=85	=85	=85	=85	=85	=85	=85	=85	=85	=85	=85	=85
!	!	!LO:TX:t=P:problem=mixed beam	!	!	!	!	!	!	!	!	!	!	!
8E\Lyy	16g/LLyy	16dd\LLyy	8G\Lyy	.	2dd\	.	4dd\yy	.	4ff#\yy	2ryy	2ryy	2ryy	2ryy
.	16g/yy	16d/yy	.	.	.	.	.	.	.	.	.	.	.
8G\yy	16b/yy	16dd\yy	8B\yy	.	.	.	.	.	.	.	.	.	.
.	16b/JJyy	16d/JJyy	.	.	.	.	.	.	.	.	.	.	.
!	!	!LO:TX:t=P:problem=mixed beam	!	!	!	!	!	!	!	!	!	!	!
8E\yy	16g/LLyy	16dd\LLyy	8G\yy	.	.	.	4ryy	.	4ryy	.	.	.	.
.	16g/yy	16d/yy	.	.	.	.	.	.	.	.	.	.	.
8D\Jyy	16f#/yy	16dd\yy	8F#\Jyy	.	.	.	.	.	.	.	.	.	.
.	16f#/JJyy	16d/JJyy	.	.	.	.	.	.	.	.	.	.	.
=86	=86	=86	=86	=86	=86	=86	=86	=86	=86	=86	=86	=86	=86
!	!	!	!	!LO:MO:null:mod=-cem	!	!	!	!	!	!	!	!	!
4A\yy	4cc#\yy	4ee\yy	4c#\yy	.	4ee\	-cem	4a/yy	.	4ee\yy	2ryy	2ryy	2ryy	2ryy
!	!	!	!	!LO:MO:null:mod=da	!	!	!	!	!	!	!	!	!
4D\yy	4dd\yy	4ff#\yy	4d\yy	.	4ff#\	da	4dd\yy	.	4ff#\yy	.	.	.	.
=87	=87	=87	=87	=87	=87	=87	=87	=87	=87	=87	=87	=87	=87
!	!	!	!	!LO:MO:null:mod=pa-	!	!	!	!	!	!	!	!	!
4A\yy	4cc#\yy	4ee\yy	2c#\yy	.	2ee\	pa-	4a/yy	.	4ee\yy	2ryy	2ryy	2ryy	2ryy
4AA/yy	4cc#\yy	4ee\yy	.	.	.	.	4a/yy	.	4ee\yy	.	.	.	.
!	!	!	!LO:LB:g=original	!	!	!	!	!	!	!	!	!	!
=88	=88	=88	=88	=88	=88	=88	=88	=88	=88	=88	=88	=88	=88
*2\right	*2\right	*2\right	*	*	*	*	*2\right	*	*2\right	*	*	*	*
!	!	!	!	!LO:MO:null:mod=-cem	!	!	!	!	!	!	!	!	!
2D\yy	2dd\yy	2ff#\yy	2d\yy	.	2ff#\	-cem	2dd\yy	.	2ff#\yy	2ryy	2ryy	2ryy	2ryy
=89	=89	=89	=89	=89	=89	=89	=89	=89	=89	=89	=89	=89	=89
!	!	!	!	!LO:MO:null:mod=da	!	!	!	!	!	!	!	!	!
2A\yy	4ryy	4ryy	2c#\yy	.	2ee\	da	4ryy	.	4ryy	2ryy	2ryy	2ryy	2ryy
.	4cc#\yy	4ee\yy	.	.	.	.	4a/yy	.	4ee\yy	.	.	.	.
=90	=90	=90	=90	=90	=90	=90	=90	=90	=90	=90	=90	=90	=90
!	!	!	!LO:SIC:s=(2d	!LO:MO:null:mod=pa-	!LO:SIC:s=(2ff#	!	!	!	!	!	!	!	!
2d\yy	4ryy	4ryy	2d\yy	.	2ff#\	pa-	4ryy	.	4ryy	2ryy	2ryy	2ryy	2ryy
.	4dd\yy	4ff#\yy	.	.	.	.	4dd\yy	.	4ff#\yy	.	.	.	.
!	!	!	!	!	!	!	!LO:LB:g=original	!	!	!	!	!	!
=91	=91	=91	=91	=91	=91	=91	=91	=91	=91	=91	=91	=91	=91
!	!	!	!LO:SIC:s=2c#)	!	!LO:SIC:s=2ee)	!	!	!	!	!	!	!	!
2A\yy	4ryy	4ryy	2c#\yy	.	2ee\	.	4ryy	.	4ryy	2ryy	2ryy	2ryy	2ryy
.	4cc#\yy	4ee\yy	.	.	.	.	4a/yy	.	4ee\yy	.	.	.	.
=92	=92	=92	=92	=92	=92	=92	=92	=92	=92	=92	=92	=92	=92
!	!LO:MO:mod=2dd	!LO:MO:mod=2ff# 2a 2d	!	!LO:MO:null:mod=-cem.	!	!LO:SIC:s=-cem.	!	!	!	!	!	!	!
2D\yy	4dd\yy	4ff#yy 4ayy 4d/yy	2d\yy	.	2ff#\	-cem	2dd\yy	.	2ff#\yy	2ryy	2ryy	2ryy	2ryy
!	!LO:MO:mod=.	!LO:MO:mod=.	!	!	!	!	!	!	!	!	!	!	!
.	4ryy	4ryy	.	.	.	.	.	.	.	.	.	.	.
!	!	!	!	!	!LO:TX:b:i:mod= :t=LD	!	!	!	!	!	!	!	!
!LO:MO:mod===	!LO:MO:mod===	!LO:MO:mod===	!LO:MO:mod===	!	!LO:MO:mod===	!	!LO:MO:mod===	!	!LO:MO:mod===	!	!	!	!
==;;	==;	==;	==;	==	==;	==	==;	==	==;	==	==	==	==
*-	*-	*-	*-	*-	*-	*-	*-	*-	*-	*-	*-	*-	*-
!!!system-decoration: [(ww)][(bras)][vox][(str)][klav]
!!LO:MO:mod
!! !!!RDF**kern: @ = marked note, color=grey
!!LO:MO:end
!!!filter-modern: shed -e "s/LO:N:/LO:n:$1/L" | shed -e "s/^(\d+[\/\\]right)/$1yy/I" | shed -e "s/yy//" | shed -e "s/TX(.*):t=P:/tx$1:t=P:/LG" | shed -k -e "s/([^a-gA-Gn#X-])[<>]/$1/g" | sic -sq | modori -m | autostem -r | tie -s | humtr -p
!!!ENC: Andrzej Kubiczek
!!!END: 2025-03-16
!!!EED: Andrzej Kubiczek
!!!EEV: 2025-03-16
!!!ENC-modern: Andrzej Kubiczek
!!!END-modern: 2025-03-16
